(.../pcb-gcode-3.6.0.4/pcb-gcode.ulp)
(Copyright 2005 - 2012 by John Johnson)
(See readme.txt for licensing terms.)
(This file generated from the board:)
(.../Desktop/FT232-Breakout-v10.brd)
(Current profile is .../pcb-gcode-3.6.0.4/profiles/mach.pp  )
(This file generated 2/3/2014 3:43:39 PM)
(Settings from pcb-machine.h)
(  Tool Size)
(0.2540  )
(Z Axis Settings)
(  High     Up        Down     Drill)
(12.0000 	3.0000  	-0.0800 	10.0000 )
(spindle on time = 3.0000)
(milling depth = -0.2540)
(text depth = -0.1270)
(tool change at 12.7000 15.2400 25.4000 )
(feed rate xy = F300   )
(feed rate z  = F254   )
(Settings from pcb-defaults.h)
(isolate min = 0.0254)
(isolate max = 0.5080)
(isolate step = 0.1270)
(Generated bottom outlines, bottom drill, )
(Unit of measure: mm)
( Tool|       Size       |  Min Sub |  Max Sub |   Count )
( T01 | 3.302mm 0.1300in | 0.0000in | 0.0000in |       0 )
( T02 | 0.610mm 0.0240in | 0.0000in | 0.0000in |       0 )
( T03 | 0.914mm 0.0360in | 0.0000in | 0.0000in |       0 )
( T04 | 1.016mm 0.0400in | 0.0000in | 0.0000in |       0 )
( T05 | 2.286mm 0.0900in | 0.0000in | 0.0000in |       0 )
(Metric Mode)
G21
(Absolute Coordinates)
G90
M05
G00 Z25.4000 
G00 X12.7000 Y15.2400 
M06 T01  ; 3.3020  
G01 Z0.0000  F254   
M06 T01  ; 3.3020  
G00 Z3.0000  
M03
G04 P3.000000
G82 X-34.2900 Y3.8100  Z10.0000 F254   R3.0000  P1.000000
G82 X-34.2900 Y26.6700 
G82 X-3.8100 Y3.8100  
G82 X-3.8100 Y26.6700 
M05
G00 Z25.4000 
M06 T02  ; 0.6096  
G01 Z0.0000  F254   
M06 T02  ; 0.6096  
G00 Z3.0000  
M03
G04 P3.000000
G82 X-24.9936 Y11.1760 Z10.0000 F254   R3.0000  P1.000000
G82 X-24.9936 Y13.6144 
M05
G00 Z25.4000 
M06 T03  ; 0.9144  
G01 Z0.0000  F254   
M06 T03  ; 0.9144  
G00 Z3.0000  
M03
G04 P3.000000
G82 X-8.8900 Y13.9900 Z10.0000 F254   R3.0000  P1.000000
G82 X-8.8900 Y16.4900 
G82 X-10.8712 Y13.9900 
G82 X-10.8712 Y16.4900 
M05
G00 Z25.4000 
M06 T04  ; 1.0160  
G01 Z0.0000  F254   
M06 T04  ; 1.0160  
G00 Z3.0000  
M03
G04 P3.000000
G82 X-35.5600 Y11.4300 Z10.0000 F254   R3.0000  P1.000000
G82 X-35.5600 Y13.9700 
G82 X-35.5600 Y16.5100 
G82 X-35.5600 Y19.0500 
M05
G00 Z25.4000 
M06 T05  ; 2.2860  
G01 Z0.0000  F254   
M06 T05  ; 2.2860  
G00 Z3.0000  
M03
G04 P3.000000
G82 X-6.1722 Y9.2202  Z10.0000 F254   R3.0000  P1.000000
G82 X-6.1722 Y21.2598 
T01 
G00 Z12.0000 
M05
M02
