(.../pcb-gcode-3.6.0.4/pcb-gcode.ulp)
(Copyright 2005 - 2012 by John Johnson)
(See readme.txt for licensing terms.)
(This file generated from the board:)
(.../Desktop/FT232-Breakout-v10.brd)
(Current profile is .../pcb-gcode-3.6.0.4/profiles/mach.pp  )
(This file generated 2/3/2014 3:43:34 PM)
(Settings from pcb-machine.h)
(  Tool Size)
(0.2540  )
(Z Axis Settings)
(  High     Up        Down     Drill)
(12.0000 	3.0000  	-0.0800 	10.0000 )
(spindle on time = 3.0000)
(milling depth = -0.2540)
(text depth = -0.1270)
(tool change at 12.7000 15.2400 25.4000 )
(feed rate xy = F300   )
(feed rate z  = F254   )
(Settings from pcb-defaults.h)
(isolate min = 0.0254)
(isolate max = 0.5080)
(isolate step = 0.1270)
(Generated bottom outlines, bottom drill, )
(Unit of measure: mm)
(Metric Mode)
G21
(Absolute Coordinates)
G90
G00 X0.0000  Y0.0000  
M03
G04 P3.000000
G00 Z3.0000  
G00 X-0.9649 Y17.2428 
G01 Z-0.0800 F254   
G01 X-1.1697 Y17.2428 F300   
G01 X-0.8890 Y16.9621 
G01 X-0.8890 Y17.1669 
G01 X-0.9649 Y17.2428 
G00 Z3.0000  
G00 X-1.6520 Y16.9455 
G01 Z-0.0800 F254   
G01 X-1.5761 Y16.8696 F300   
G01 X-1.3713 Y16.8696 
G01 X-1.6520 Y17.1503 
G01 X-1.6520 Y16.9455 
G00 Z3.0000  
G00 X-0.9649 Y12.1920 
G01 Z-0.0800 F254   
G01 X-0.8890 Y12.2679 F300   
G01 X-0.8890 Y12.4893 
G01 X-0.9649 Y12.5652 
G01 X-0.9914 Y12.5652 
G01 X-1.0673 Y12.4893 
G01 X-1.0673 Y12.1920 
G01 X-0.9649 Y12.1920 
G00 Z3.0000  
G00 X-30.1788 Y18.4404 
G01 Z-0.0800 F254   
G01 X-34.8764 Y18.4404 F300   
G01 X-34.9771 Y18.3397 
G01 X-35.1269 Y18.2397 
G01 X-35.2933 Y18.1707 
G01 X-35.4699 Y18.1356 
G01 X-35.6501 Y18.1356 
G01 X-35.8267 Y18.1707 
G01 X-35.9931 Y18.2397 
G01 X-36.1429 Y18.3397 
G01 X-36.2703 Y18.4671 
G01 X-36.3703 Y18.6169 
G01 X-36.4393 Y18.7833 
G01 X-36.4744 Y18.9599 
G01 X-36.4744 Y19.1401 
G01 X-36.4393 Y19.3167 
G01 X-36.3703 Y19.4831 
G01 X-36.2703 Y19.6329 
G01 X-36.1429 Y19.7603 
G01 X-35.9931 Y19.8603 
G01 X-35.8267 Y19.9293 
G01 X-35.6501 Y19.9644 
G01 X-35.4699 Y19.9644 
G01 X-35.2933 Y19.9293 
G01 X-35.1269 Y19.8603 
G01 X-34.9771 Y19.7603 
G01 X-34.8497 Y19.6329 
G01 X-34.7497 Y19.4831 
G01 X-34.6807 Y19.3167 
G01 X-34.6456 Y19.1401 
G01 X-34.6456 Y18.9599 
G01 X-34.6479 Y18.9484 
G01 X-30.0231 Y18.9484 
G01 X-29.9297 Y18.9097 
G01 X-29.8583 Y18.8383 
G01 X-25.2450 Y14.2251 
G01 X-25.1862 Y14.2494 
G01 X-25.0586 Y14.2748 
G01 X-24.9286 Y14.2748 
G01 X-24.8010 Y14.2494 
G01 X-24.6808 Y14.1996 
G01 X-24.5726 Y14.1274 
G01 X-24.4806 Y14.0354 
G01 X-24.4084 Y13.9272 
G01 X-24.3586 Y13.8070 
G01 X-24.3332 Y13.6794 
G01 X-24.3332 Y13.5494 
G01 X-24.3586 Y13.4218 
G01 X-24.4084 Y13.3016 
G01 X-24.4806 Y13.1934 
G01 X-24.5726 Y13.1014 
G01 X-24.6808 Y13.0292 
G01 X-24.8010 Y12.9794 
G01 X-24.9286 Y12.9540 
G01 X-25.0586 Y12.9540 
G01 X-25.1862 Y12.9794 
G01 X-25.3064 Y13.0292 
G01 X-25.4146 Y13.1014 
G01 X-25.5066 Y13.1934 
G01 X-25.5788 Y13.3016 
G01 X-25.6286 Y13.4218 
G01 X-25.6540 Y13.5494 
G01 X-25.6540 Y13.6794 
G01 X-25.6286 Y13.8070 
G01 X-25.6043 Y13.8658 
G01 X-30.1788 Y18.4404 
G00 Z3.0000  
G00 X-29.9756 Y15.7988 
G01 Z-0.0800 F254   
G01 X-34.9323 Y15.7988 F300   
G01 X-34.9645 Y15.7942 
G01 X-34.9796 Y15.7981 
G01 X-35.1269 Y15.6997 
G01 X-35.2933 Y15.6307 
G01 X-35.4699 Y15.5956 
G01 X-35.6501 Y15.5956 
G01 X-35.8267 Y15.6307 
G01 X-35.9931 Y15.6997 
G01 X-36.1429 Y15.7997 
G01 X-36.2703 Y15.9271 
G01 X-36.3703 Y16.0769 
G01 X-36.4393 Y16.2433 
G01 X-36.4744 Y16.4199 
G01 X-36.4744 Y16.6001 
G01 X-36.4393 Y16.7767 
G01 X-36.3703 Y16.9431 
G01 X-36.2703 Y17.0929 
G01 X-36.1429 Y17.2203 
G01 X-35.9931 Y17.3203 
G01 X-35.8267 Y17.3893 
G01 X-35.6501 Y17.4244 
G01 X-35.4699 Y17.4244 
G01 X-35.2933 Y17.3893 
G01 X-35.1269 Y17.3203 
G01 X-34.9771 Y17.2203 
G01 X-34.8497 Y17.0929 
G01 X-34.7497 Y16.9431 
G01 X-34.6807 Y16.7767 
G01 X-34.6456 Y16.6001 
G01 X-34.6456 Y16.4199 
G01 X-34.6681 Y16.3068 
G01 X-29.8199 Y16.3068 
G01 X-29.7265 Y16.2681 
G01 X-29.6551 Y16.1967 
G01 X-25.2450 Y11.7867 
G01 X-25.1862 Y11.8110 
G01 X-25.0586 Y11.8364 
G01 X-24.9286 Y11.8364 
G01 X-24.8010 Y11.8110 
G01 X-24.6808 Y11.7612 
G01 X-24.5726 Y11.6890 
G01 X-24.4806 Y11.5970 
G01 X-24.4084 Y11.4888 
G01 X-24.3586 Y11.3686 
G01 X-24.3332 Y11.2410 
G01 X-24.3332 Y11.1110 
G01 X-24.3586 Y10.9834 
G01 X-24.4084 Y10.8632 
G01 X-24.4806 Y10.7550 
G01 X-24.5726 Y10.6630 
G01 X-24.6808 Y10.5908 
G01 X-24.8010 Y10.5410 
G01 X-24.9286 Y10.5156 
G01 X-25.0586 Y10.5156 
G01 X-25.1862 Y10.5410 
G01 X-25.3064 Y10.5908 
G01 X-25.4146 Y10.6630 
G01 X-25.5066 Y10.7550 
G01 X-25.5788 Y10.8632 
G01 X-25.6286 Y10.9834 
G01 X-25.6540 Y11.1110 
G01 X-25.6540 Y11.2410 
G01 X-25.6286 Y11.3686 
G01 X-25.6043 Y11.4274 
G01 X-29.9756 Y15.7988 
G00 Z3.0000  
G00 X-36.4744 Y13.8799 
G01 Z-0.0800 F254   
G01 X-36.4744 Y14.0601 F300   
G01 X-36.4393 Y14.2367 
G01 X-36.3703 Y14.4031 
G01 X-36.2703 Y14.5529 
G01 X-36.1429 Y14.6803 
G01 X-35.9931 Y14.7803 
G01 X-35.8267 Y14.8493 
G01 X-35.6501 Y14.8844 
G01 X-35.4699 Y14.8844 
G01 X-35.2933 Y14.8493 
G01 X-35.1269 Y14.7803 
G01 X-34.9771 Y14.6803 
G01 X-34.8497 Y14.5529 
G01 X-34.7497 Y14.4031 
G01 X-34.6807 Y14.2367 
G01 X-34.6456 Y14.0601 
G01 X-34.6456 Y13.8799 
G01 X-34.6807 Y13.7033 
G01 X-34.7497 Y13.5369 
G01 X-34.8497 Y13.3871 
G01 X-34.9771 Y13.2597 
G01 X-35.1269 Y13.1597 
G01 X-35.2933 Y13.0907 
G01 X-35.4699 Y13.0556 
G01 X-35.6501 Y13.0556 
G01 X-35.8267 Y13.0907 
G01 X-35.9931 Y13.1597 
G01 X-36.1429 Y13.2597 
G01 X-36.2703 Y13.3871 
G01 X-36.3703 Y13.5369 
G01 X-36.4393 Y13.7033 
G01 X-36.4744 Y13.8799 
G00 Z3.0000  
G00 X-36.4744 Y11.3399 
G01 Z-0.0800 F254   
G01 X-36.4744 Y11.5201 F300   
G01 X-36.4393 Y11.6967 
G01 X-36.3703 Y11.8631 
G01 X-36.2703 Y12.0129 
G01 X-36.1429 Y12.1403 
G01 X-35.9931 Y12.2403 
G01 X-35.8267 Y12.3093 
G01 X-35.6501 Y12.3444 
G01 X-35.4699 Y12.3444 
G01 X-35.2933 Y12.3093 
G01 X-35.1269 Y12.2403 
G01 X-34.9771 Y12.1403 
G01 X-34.8497 Y12.0129 
G01 X-34.7497 Y11.8631 
G01 X-34.6807 Y11.6967 
G01 X-34.6456 Y11.5201 
G01 X-34.6456 Y11.3399 
G01 X-34.6807 Y11.1633 
G01 X-34.7497 Y10.9969 
G01 X-34.8497 Y10.8471 
G01 X-34.9771 Y10.7197 
G01 X-35.1269 Y10.6197 
G01 X-35.2933 Y10.5507 
G01 X-35.4699 Y10.5156 
G01 X-35.6501 Y10.5156 
G01 X-35.8267 Y10.5507 
G01 X-35.9931 Y10.6197 
G01 X-36.1429 Y10.7197 
G01 X-36.2703 Y10.8471 
G01 X-36.3703 Y10.9969 
G01 X-36.4393 Y11.1633 
G01 X-36.4744 Y11.3399 
G00 Z3.0000  
G00 X-7.9756 Y21.1416 
G01 Z-0.0800 F254   
G01 X-7.9756 Y21.3780 F300   
G01 X-7.9447 Y21.6124 
G01 X-7.8836 Y21.8407 
G01 X-7.7931 Y22.0591 
G01 X-7.6749 Y22.2639 
G01 X-7.5310 Y22.4514 
G01 X-7.3638 Y22.6186 
G01 X-7.1763 Y22.7625 
G01 X-6.9715 Y22.8807 
G01 X-6.7531 Y22.9712 
G01 X-6.5248 Y23.0323 
G01 X-6.2904 Y23.0632 
G01 X-6.0540 Y23.0632 
G01 X-5.8196 Y23.0323 
G01 X-5.5913 Y22.9712 
G01 X-5.3729 Y22.8807 
G01 X-5.1681 Y22.7625 
G01 X-4.9806 Y22.6186 
G01 X-4.8134 Y22.4514 
G01 X-4.6695 Y22.2639 
G01 X-4.5513 Y22.0591 
G01 X-4.4608 Y21.8407 
G01 X-4.3997 Y21.6124 
G01 X-4.3688 Y21.3780 
G01 X-4.3688 Y21.1416 
G01 X-4.3997 Y20.9072 
G01 X-4.4608 Y20.6789 
G01 X-4.5513 Y20.4605 
G01 X-4.6695 Y20.2557 
G01 X-4.8134 Y20.0682 
G01 X-4.9806 Y19.9010 
G01 X-5.1681 Y19.7571 
G01 X-5.3729 Y19.6389 
G01 X-5.5913 Y19.5484 
G01 X-5.8196 Y19.4873 
G01 X-6.0540 Y19.4564 
G01 X-6.2904 Y19.4564 
G01 X-6.5248 Y19.4873 
G01 X-6.7531 Y19.5484 
G01 X-6.9715 Y19.6389 
G01 X-7.1763 Y19.7571 
G01 X-7.3638 Y19.9010 
G01 X-7.5310 Y20.0682 
G01 X-7.6749 Y20.2557 
G01 X-7.7931 Y20.4605 
G01 X-7.8836 Y20.6789 
G01 X-7.9447 Y20.9072 
G01 X-7.9756 Y21.1416 
G00 Z3.0000  
G00 X-7.9756 Y9.1020  
G01 Z-0.0800 F254   
G01 X-7.9756 Y9.3384  F300   
G01 X-7.9447 Y9.5728  
G01 X-7.8836 Y9.8011  
G01 X-7.7931 Y10.0195 
G01 X-7.6749 Y10.2243 
G01 X-7.5310 Y10.4118 
G01 X-7.3638 Y10.5790 
G01 X-7.1763 Y10.7229 
G01 X-6.9715 Y10.8411 
G01 X-6.7531 Y10.9316 
G01 X-6.5248 Y10.9927 
G01 X-6.2904 Y11.0236 
G01 X-6.0540 Y11.0236 
G01 X-5.8196 Y10.9927 
G01 X-5.5913 Y10.9316 
G01 X-5.3729 Y10.8411 
G01 X-5.1681 Y10.7229 
G01 X-4.9806 Y10.5790 
G01 X-4.8134 Y10.4118 
G01 X-4.6695 Y10.2243 
G01 X-4.5513 Y10.0195 
G01 X-4.4608 Y9.8011  
G01 X-4.3997 Y9.5728  
G01 X-4.3688 Y9.3384  
G01 X-4.3688 Y9.1020  
G01 X-4.3997 Y8.8676  
G01 X-4.4608 Y8.6393  
G01 X-4.5513 Y8.4209  
G01 X-4.6695 Y8.2161  
G01 X-4.8134 Y8.0286  
G01 X-4.9806 Y7.8614  
G01 X-5.1681 Y7.7175  
G01 X-5.3729 Y7.5993  
G01 X-5.5913 Y7.5088  
G01 X-5.8196 Y7.4477  
G01 X-6.0540 Y7.4168  
G01 X-6.2904 Y7.4168  
G01 X-6.5248 Y7.4477  
G01 X-6.7531 Y7.5088  
G01 X-6.9715 Y7.5993  
G01 X-7.1763 Y7.7175  
G01 X-7.3638 Y7.8614  
G01 X-7.5310 Y8.0286  
G01 X-7.6749 Y8.2161  
G01 X-7.7931 Y8.4209  
G01 X-7.8836 Y8.6393  
G01 X-7.9447 Y8.8676  
G01 X-7.9756 Y9.1020  
G00 Z3.0000  
G00 X-9.7536 Y13.9049 
G01 Z-0.0800 F254   
G01 X-9.7536 Y14.0751 F300   
G01 X-9.7204 Y14.2419 
G01 X-9.6553 Y14.3991 
G01 X-9.5608 Y14.5405 
G01 X-9.4405 Y14.6608 
G01 X-9.2991 Y14.7553 
G01 X-9.1419 Y14.8204 
G01 X-8.9751 Y14.8536 
G01 X-8.8049 Y14.8536 
G01 X-8.6381 Y14.8204 
G01 X-8.4809 Y14.7553 
G01 X-8.3395 Y14.6608 
G01 X-8.2192 Y14.5405 
G01 X-8.1247 Y14.3991 
G01 X-8.0596 Y14.2419 
G01 X-8.0264 Y14.0751 
G01 X-8.0264 Y13.9049 
G01 X-8.0596 Y13.7381 
G01 X-8.1247 Y13.5809 
G01 X-8.2192 Y13.4395 
G01 X-8.3395 Y13.3192 
G01 X-8.4809 Y13.2247 
G01 X-8.6381 Y13.1596 
G01 X-8.8049 Y13.1264 
G01 X-8.9751 Y13.1264 
G01 X-9.1419 Y13.1596 
G01 X-9.2991 Y13.2247 
G01 X-9.4405 Y13.3192 
G01 X-9.5608 Y13.4395 
G01 X-9.6553 Y13.5809 
G01 X-9.7204 Y13.7381 
G01 X-9.7536 Y13.9049 
G00 Z3.0000  
G00 X-9.7536 Y16.4049 
G01 Z-0.0800 F254   
G01 X-9.7536 Y16.5751 F300   
G01 X-9.7204 Y16.7419 
G01 X-9.6553 Y16.8991 
G01 X-9.5608 Y17.0405 
G01 X-9.4405 Y17.1608 
G01 X-9.2991 Y17.2553 
G01 X-9.1419 Y17.3204 
G01 X-8.9751 Y17.3536 
G01 X-8.8049 Y17.3536 
G01 X-8.6381 Y17.3204 
G01 X-8.4809 Y17.2553 
G01 X-8.3395 Y17.1608 
G01 X-8.2192 Y17.0405 
G01 X-8.1247 Y16.8991 
G01 X-8.0596 Y16.7419 
G01 X-8.0264 Y16.5751 
G01 X-8.0264 Y16.4049 
G01 X-8.0596 Y16.2381 
G01 X-8.1247 Y16.0809 
G01 X-8.2192 Y15.9395 
G01 X-8.3395 Y15.8192 
G01 X-8.4809 Y15.7247 
G01 X-8.6381 Y15.6596 
G01 X-8.8049 Y15.6264 
G01 X-8.9751 Y15.6264 
G01 X-9.1419 Y15.6596 
G01 X-9.2991 Y15.7247 
G01 X-9.4405 Y15.8192 
G01 X-9.5608 Y15.9395 
G01 X-9.6553 Y16.0809 
G01 X-9.7204 Y16.2381 
G01 X-9.7536 Y16.4049 
G00 Z3.0000  
G00 X-11.7348 Y16.4049 
G01 Z-0.0800 F254   
G01 X-11.7348 Y16.5751 F300   
G01 X-11.7016 Y16.7419 
G01 X-11.6365 Y16.8991 
G01 X-11.5420 Y17.0405 
G01 X-11.4217 Y17.1608 
G01 X-11.2803 Y17.2553 
G01 X-11.1231 Y17.3204 
G01 X-10.9563 Y17.3536 
G01 X-10.7861 Y17.3536 
G01 X-10.6193 Y17.3204 
G01 X-10.4621 Y17.2553 
G01 X-10.3207 Y17.1608 
G01 X-10.2004 Y17.0405 
G01 X-10.1059 Y16.8991 
G01 X-10.0408 Y16.7419 
G01 X-10.0076 Y16.5751 
G01 X-10.0076 Y16.4049 
G01 X-10.0408 Y16.2381 
G01 X-10.1059 Y16.0809 
G01 X-10.2004 Y15.9395 
G01 X-10.3207 Y15.8192 
G01 X-10.4621 Y15.7247 
G01 X-10.6193 Y15.6596 
G01 X-10.7861 Y15.6264 
G01 X-10.9563 Y15.6264 
G01 X-11.1231 Y15.6596 
G01 X-11.2803 Y15.7247 
G01 X-11.4217 Y15.8192 
G01 X-11.5420 Y15.9395 
G01 X-11.6365 Y16.0809 
G01 X-11.7016 Y16.2381 
G01 X-11.7348 Y16.4049 
G00 Z3.0000  
G00 X-11.7348 Y13.9049 
G01 Z-0.0800 F254   
G01 X-11.7348 Y14.0751 F300   
G01 X-11.7016 Y14.2419 
G01 X-11.6365 Y14.3991 
G01 X-11.5420 Y14.5405 
G01 X-11.4217 Y14.6608 
G01 X-11.2803 Y14.7553 
G01 X-11.1231 Y14.8204 
G01 X-10.9563 Y14.8536 
G01 X-10.7861 Y14.8536 
G01 X-10.6193 Y14.8204 
G01 X-10.4621 Y14.7553 
G01 X-10.3207 Y14.6608 
G01 X-10.2004 Y14.5405 
G01 X-10.1059 Y14.3991 
G01 X-10.0408 Y14.2419 
G01 X-10.0076 Y14.0751 
G01 X-10.0076 Y13.9049 
G01 X-10.0408 Y13.7381 
G01 X-10.1059 Y13.5809 
G01 X-10.2004 Y13.4395 
G01 X-10.3207 Y13.3192 
G01 X-10.4621 Y13.2247 
G01 X-10.6193 Y13.1596 
G01 X-10.7861 Y13.1264 
G01 X-10.9563 Y13.1264 
G01 X-11.1231 Y13.1596 
G01 X-11.2803 Y13.2247 
G01 X-11.4217 Y13.3192 
G01 X-11.5420 Y13.4395 
G01 X-11.6365 Y13.5809 
G01 X-11.7016 Y13.7381 
G01 X-11.7348 Y13.9049 
G00 Z3.0000  
G00 X-1.4880 Y14.4427 
G01 Z-0.0800 F254   
G01 X-1.4571 Y14.3680 F300   
G01 X-1.4571 Y14.2872 
G01 X-1.4880 Y14.2125 
G01 X-1.5452 Y14.1553 
G01 X-1.6199 Y14.1244 
G01 X-1.7007 Y14.1244 
G01 X-1.7754 Y14.1553 
G01 X-1.9703 Y14.3502 
G01 X-2.0275 Y14.4074 
G01 X-2.0584 Y14.4821 
G01 X-2.0584 Y14.9527 
G01 X-2.0275 Y15.0274 
G01 X-1.8326 Y15.2223 
G01 X-1.7754 Y15.2795 
G01 X-1.7007 Y15.3104 
G01 X-1.4250 Y15.3104 
G01 X-1.3503 Y15.2795 
G01 X-1.2705 Y15.1997 
G01 X-1.2479 Y15.2223 
G01 X-1.1907 Y15.2795 
G01 X-1.1160 Y15.3104 
G01 X-0.8403 Y15.3104 
G01 X-0.7656 Y15.2795 
G01 X-0.7084 Y15.2223 
G01 X-0.5707 Y15.0846 
G01 X-0.5135 Y15.0274 
G01 X-0.4826 Y14.9527 
G01 X-0.4826 Y14.4821 
G01 X-0.5135 Y14.4074 
G01 X-0.7656 Y14.1553 
G01 X-0.8403 Y14.1244 
G01 X-0.9211 Y14.1244 
G01 X-0.9958 Y14.1553 
G01 X-1.0530 Y14.2125 
G01 X-1.0839 Y14.2872 
G01 X-1.0839 Y14.3680 
G01 X-1.0530 Y14.4427 
G01 X-0.8890 Y14.6067 
G01 X-0.8890 Y14.8281 
G01 X-0.9649 Y14.9040 
G01 X-0.9914 Y14.9040 
G01 X-1.0673 Y14.8281 
G01 X-1.0673 Y14.6770 
G01 X-1.0982 Y14.6023 
G01 X-1.1554 Y14.5451 
G01 X-1.2301 Y14.5142 
G01 X-1.3109 Y14.5142 
G01 X-1.3856 Y14.5451 
G01 X-1.4428 Y14.6023 
G01 X-1.4737 Y14.6770 
G01 X-1.4737 Y14.8281 
G01 X-1.5496 Y14.9040 
G01 X-1.5761 Y14.9040 
G01 X-1.6520 Y14.8281 
G01 X-1.6520 Y14.6067 
G01 X-1.4880 Y14.4427 
G00 Z3.0000  
G00 X-1.0673 Y13.9782 
G01 Z-0.0800 F254   
G01 X-1.0673 Y13.1178 F300   
G01 X-1.0982 Y13.0431 
G01 X-1.1554 Y12.9859 
G01 X-1.2301 Y12.9550 
G01 X-1.3109 Y12.9550 
G01 X-1.3856 Y12.9859 
G01 X-1.4428 Y13.0431 
G01 X-1.4737 Y13.1178 
G01 X-1.4737 Y13.9782 
G01 X-1.4428 Y14.0529 
G01 X-1.3856 Y14.1101 
G01 X-1.3109 Y14.1410 
G01 X-1.2301 Y14.1410 
G01 X-1.1554 Y14.1101 
G01 X-1.0982 Y14.0529 
G01 X-1.0673 Y13.9782 
G00 Z3.0000  
G00 X-1.8240 Y12.2516 
G01 Z-0.0800 F254   
G01 X-1.8273 Y12.2582 F300   
G01 X-1.8326 Y12.2635 
G01 X-1.8453 Y12.2942 
G01 X-2.0550 Y12.7137 
G01 X-2.0607 Y12.7943 
G01 X-2.0352 Y12.8710 
G01 X-1.9822 Y12.9321 
G01 X-1.9099 Y12.9682 
G01 X-1.8293 Y12.9739 
G01 X-1.7526 Y12.9484 
G01 X-1.6915 Y12.8954 
G01 X-1.4933 Y12.4990 
G01 X-1.4737 Y12.4794 
G01 X-1.4737 Y12.6139 
G01 X-1.4428 Y12.6886 
G01 X-1.3856 Y12.7458 
G01 X-1.1907 Y12.9407 
G01 X-1.1160 Y12.9716 
G01 X-0.8403 Y12.9716 
G01 X-0.7656 Y12.9407 
G01 X-0.7084 Y12.8835 
G01 X-0.5707 Y12.7458 
G01 X-0.5135 Y12.6886 
G01 X-0.4826 Y12.6139 
G01 X-0.4826 Y12.1433 
G01 X-0.5135 Y12.0686 
G01 X-0.5707 Y12.0114 
G01 X-0.7656 Y11.8165 
G01 X-0.8403 Y11.7856 
G01 X-1.3109 Y11.7856 
G01 X-1.3856 Y11.8165 
G01 X-1.4428 Y11.8737 
G01 X-1.7989 Y12.2298 
G01 X-1.8240 Y12.2516 
G00 Z3.0000  
G00 X-1.0673 Y16.3170 
G01 Z-0.0800 F254   
G01 X-1.0673 Y15.4566 F300   
G01 X-1.0982 Y15.3819 
G01 X-1.1554 Y15.3247 
G01 X-1.2301 Y15.2938 
G01 X-1.3109 Y15.2938 
G01 X-1.3856 Y15.3247 
G01 X-1.4428 Y15.3819 
G01 X-1.4737 Y15.4566 
G01 X-1.4737 Y16.3170 
G01 X-1.4428 Y16.3917 
G01 X-1.3856 Y16.4489 
G01 X-1.3510 Y16.4632 
G01 X-1.7007 Y16.4632 
G01 X-1.7754 Y16.4941 
G01 X-1.8326 Y16.5513 
G01 X-1.9703 Y16.6890 
G01 X-2.0275 Y16.7462 
G01 X-2.0584 Y16.8209 
G01 X-2.0584 Y17.2915 
G01 X-2.0275 Y17.3662 
G01 X-1.8326 Y17.5611 
G01 X-1.7789 Y17.6147 
G01 X-1.7754 Y17.6182 
G01 X-1.7007 Y17.6492 
G01 X-0.9612 Y17.6492 
G01 X-0.9958 Y17.6635 
G01 X-1.0530 Y17.7207 
G01 X-1.6520 Y18.3197 
G01 X-1.6520 Y17.7954 
G01 X-1.6829 Y17.7207 
G01 X-1.7401 Y17.6635 
G01 X-1.8148 Y17.6326 
G01 X-1.8956 Y17.6326 
G01 X-1.9703 Y17.6635 
G01 X-2.0275 Y17.7207 
G01 X-2.0584 Y17.7954 
G01 X-2.0584 Y18.6558 
G01 X-2.0275 Y18.7305 
G01 X-1.9703 Y18.7876 
G01 X-1.8956 Y18.8186 
G01 X-1.6199 Y18.8186 
G01 X-1.5452 Y18.7876 
G01 X-1.4880 Y18.7305 
G01 X-0.7965 Y18.0390 
G01 X-0.6454 Y18.0390 
G01 X-0.5707 Y18.0080 
G01 X-0.5135 Y17.9509 
G01 X-0.4826 Y17.8762 
G01 X-0.4826 Y17.7954 
G01 X-0.5135 Y17.7207 
G01 X-0.5707 Y17.6635 
G01 X-0.6454 Y17.6326 
G01 X-0.8002 Y17.6326 
G01 X-0.7656 Y17.6182 
G01 X-0.7084 Y17.5611 
G01 X-0.5707 Y17.4233 
G01 X-0.5135 Y17.3662 
G01 X-0.4826 Y17.2915 
G01 X-0.4826 Y16.8209 
G01 X-0.5135 Y16.7462 
G01 X-0.7647 Y16.4950 
G01 X-0.8403 Y16.4632 
G01 X-1.1900 Y16.4632 
G01 X-1.1554 Y16.4489 
G01 X-1.0982 Y16.3917 
G01 X-1.0673 Y16.3170 
G00 Z3.0000  
G00 X-1.5250 Y17.7923 
G01 Z-0.0800 F254   
G01 X-1.5293 Y17.7762 F300   
G01 X-1.2881 Y17.7762 
G01 X-1.5250 Y18.0131 
G01 X-1.5250 Y17.7923 
G00 Z3.0000  
G00 X-1.2270 Y14.3872 
G01 Z-0.0800 F254   
G01 X-1.3140 Y14.3872 F300   
G01 X-1.3360 Y14.3931 
G01 X-1.3301 Y14.3711 
G01 X-1.3301 Y14.2841 
G01 X-1.3360 Y14.2621 
G01 X-1.3140 Y14.2680 
G01 X-1.2270 Y14.2680 
G01 X-1.2050 Y14.2621 
G01 X-1.2109 Y14.2841 
G01 X-1.2109 Y14.3711 
G01 X-1.2050 Y14.3931 
G01 X-1.2270 Y14.3872 
G00 Z3.0000  
G00 X-30.2314 Y18.3134 
G01 Z-0.0800 F254   
G01 X-34.8238 Y18.3134 F300   
G01 X-34.8816 Y18.2557 
G01 X-35.0142 Y18.1593 
G01 X-35.1602 Y18.0849 
G01 X-35.3161 Y18.0342 
G01 X-35.4780 Y18.0086 
G01 X-35.6420 Y18.0086 
G01 X-35.8039 Y18.0342 
G01 X-35.9598 Y18.0849 
G01 X-36.1058 Y18.1593 
G01 X-36.2384 Y18.2557 
G01 X-36.3543 Y18.3716 
G01 X-36.4507 Y18.5042 
G01 X-36.5251 Y18.6502 
G01 X-36.5758 Y18.8061 
G01 X-36.6014 Y18.9680 
G01 X-36.6014 Y19.1320 
G01 X-36.5758 Y19.2939 
G01 X-36.5251 Y19.4498 
G01 X-36.4507 Y19.5958 
G01 X-36.3543 Y19.7284 
G01 X-36.2384 Y19.8443 
G01 X-36.1058 Y19.9407 
G01 X-35.9598 Y20.0151 
G01 X-35.8039 Y20.0658 
G01 X-35.6420 Y20.0914 
G01 X-35.4780 Y20.0914 
G01 X-35.3161 Y20.0658 
G01 X-35.1602 Y20.0151 
G01 X-35.0142 Y19.9407 
G01 X-34.8816 Y19.8443 
G01 X-34.7657 Y19.7284 
G01 X-34.6693 Y19.5958 
G01 X-34.5949 Y19.4498 
G01 X-34.5442 Y19.2939 
G01 X-34.5186 Y19.1320 
G01 X-34.5186 Y19.0754 
G01 X-30.0234 Y19.0754 
G01 X-29.9265 Y19.0494 
G01 X-29.8397 Y18.9993 
G01 X-29.7687 Y18.9283 
G01 X-25.2138 Y14.3734 
G01 X-25.0712 Y14.4018 
G01 X-24.9160 Y14.4018 
G01 X-24.7639 Y14.3715 
G01 X-24.6206 Y14.3122 
G01 X-24.4917 Y14.2260 
G01 X-24.3820 Y14.1163 
G01 X-24.2958 Y13.9874 
G01 X-24.2365 Y13.8441 
G01 X-24.2062 Y13.6920 
G01 X-24.2062 Y13.5368 
G01 X-24.2365 Y13.3847 
G01 X-24.2958 Y13.2414 
G01 X-24.3820 Y13.1125 
G01 X-24.4917 Y13.0028 
G01 X-24.6206 Y12.9166 
G01 X-24.7639 Y12.8573 
G01 X-24.9160 Y12.8270 
G01 X-25.0712 Y12.8270 
G01 X-25.2233 Y12.8573 
G01 X-25.3666 Y12.9166 
G01 X-25.4955 Y13.0028 
G01 X-25.6052 Y13.1125 
G01 X-25.6914 Y13.2414 
G01 X-25.7507 Y13.3847 
G01 X-25.7810 Y13.5368 
G01 X-25.7810 Y13.6920 
G01 X-25.7526 Y13.8346 
G01 X-30.2314 Y18.3134 
G00 Z3.0000  
G00 X-30.0282 Y15.6718 
G01 Z-0.0800 F254   
G01 X-34.9233 Y15.6718 F300   
G01 X-34.9462 Y15.6685 
G01 X-35.0142 Y15.6193 
G01 X-35.1602 Y15.5449 
G01 X-35.3161 Y15.4942 
G01 X-35.4780 Y15.4686 
G01 X-35.6420 Y15.4686 
G01 X-35.8039 Y15.4942 
G01 X-35.9598 Y15.5449 
G01 X-36.1058 Y15.6193 
G01 X-36.2384 Y15.7157 
G01 X-36.3543 Y15.8316 
G01 X-36.4507 Y15.9642 
G01 X-36.5251 Y16.1102 
G01 X-36.5758 Y16.2661 
G01 X-36.6014 Y16.4280 
G01 X-36.6014 Y16.5920 
G01 X-36.5758 Y16.7539 
G01 X-36.5251 Y16.9098 
G01 X-36.4507 Y17.0558 
G01 X-36.3543 Y17.1884 
G01 X-36.2384 Y17.3043 
G01 X-36.1058 Y17.4007 
G01 X-35.9598 Y17.4751 
G01 X-35.8039 Y17.5258 
G01 X-35.6420 Y17.5514 
G01 X-35.4780 Y17.5514 
G01 X-35.3161 Y17.5258 
G01 X-35.1602 Y17.4751 
G01 X-35.0142 Y17.4007 
G01 X-34.8816 Y17.3043 
G01 X-34.7657 Y17.1884 
G01 X-34.6693 Y17.0558 
G01 X-34.5949 Y16.9098 
G01 X-34.5442 Y16.7539 
G01 X-34.5186 Y16.5920 
G01 X-34.5186 Y16.4338 
G01 X-29.8202 Y16.4338 
G01 X-29.7233 Y16.4078 
G01 X-29.6365 Y16.3577 
G01 X-29.5655 Y16.2867 
G01 X-25.2138 Y11.9350 
G01 X-25.0712 Y11.9634 
G01 X-24.9160 Y11.9634 
G01 X-24.7639 Y11.9331 
G01 X-24.6206 Y11.8738 
G01 X-24.4917 Y11.7876 
G01 X-24.3820 Y11.6779 
G01 X-24.2958 Y11.5490 
G01 X-24.2365 Y11.4057 
G01 X-24.2062 Y11.2536 
G01 X-24.2062 Y11.0984 
G01 X-24.2365 Y10.9463 
G01 X-24.2958 Y10.8030 
G01 X-24.3820 Y10.6741 
G01 X-24.4917 Y10.5644 
G01 X-24.6206 Y10.4782 
G01 X-24.7639 Y10.4189 
G01 X-24.9160 Y10.3886 
G01 X-25.0712 Y10.3886 
G01 X-25.2233 Y10.4189 
G01 X-25.3666 Y10.4782 
G01 X-25.4955 Y10.5644 
G01 X-25.6052 Y10.6741 
G01 X-25.6914 Y10.8030 
G01 X-25.7507 Y10.9463 
G01 X-25.7810 Y11.0984 
G01 X-25.7810 Y11.2536 
G01 X-25.7526 Y11.3962 
G01 X-30.0282 Y15.6718 
G00 Z3.0000  
G00 X-36.6014 Y13.8880 
G01 Z-0.0800 F254   
G01 X-36.6014 Y14.0520 F300   
G01 X-36.5758 Y14.2139 
G01 X-36.5251 Y14.3698 
G01 X-36.4507 Y14.5158 
G01 X-36.3543 Y14.6484 
G01 X-36.2384 Y14.7643 
G01 X-36.1058 Y14.8607 
G01 X-35.9598 Y14.9351 
G01 X-35.8039 Y14.9858 
G01 X-35.6420 Y15.0114 
G01 X-35.4780 Y15.0114 
G01 X-35.3161 Y14.9858 
G01 X-35.1602 Y14.9351 
G01 X-35.0142 Y14.8607 
G01 X-34.8816 Y14.7643 
G01 X-34.7657 Y14.6484 
G01 X-34.6693 Y14.5158 
G01 X-34.5949 Y14.3698 
G01 X-34.5442 Y14.2139 
G01 X-34.5186 Y14.0520 
G01 X-34.5186 Y13.8880 
G01 X-34.5442 Y13.7261 
G01 X-34.5949 Y13.5702 
G01 X-34.6693 Y13.4242 
G01 X-34.7657 Y13.2916 
G01 X-34.8816 Y13.1757 
G01 X-35.0142 Y13.0793 
G01 X-35.1602 Y13.0049 
G01 X-35.3161 Y12.9542 
G01 X-35.4780 Y12.9286 
G01 X-35.6420 Y12.9286 
G01 X-35.8039 Y12.9542 
G01 X-35.9598 Y13.0049 
G01 X-36.1058 Y13.0793 
G01 X-36.2384 Y13.1757 
G01 X-36.3543 Y13.2916 
G01 X-36.4507 Y13.4242 
G01 X-36.5251 Y13.5702 
G01 X-36.5758 Y13.7261 
G01 X-36.6014 Y13.8880 
G00 Z3.0000  
G00 X-36.6014 Y11.3480 
G01 Z-0.0800 F254   
G01 X-36.6014 Y11.5120 F300   
G01 X-36.5758 Y11.6739 
G01 X-36.5251 Y11.8298 
G01 X-36.4507 Y11.9758 
G01 X-36.3543 Y12.1084 
G01 X-36.2384 Y12.2243 
G01 X-36.1058 Y12.3207 
G01 X-35.9598 Y12.3951 
G01 X-35.8039 Y12.4458 
G01 X-35.6420 Y12.4714 
G01 X-35.4780 Y12.4714 
G01 X-35.3161 Y12.4458 
G01 X-35.1602 Y12.3951 
G01 X-35.0142 Y12.3207 
G01 X-34.8816 Y12.2243 
G01 X-34.7657 Y12.1084 
G01 X-34.6693 Y11.9758 
G01 X-34.5949 Y11.8298 
G01 X-34.5442 Y11.6739 
G01 X-34.5186 Y11.5120 
G01 X-34.5186 Y11.3480 
G01 X-34.5442 Y11.1861 
G01 X-34.5949 Y11.0302 
G01 X-34.6693 Y10.8842 
G01 X-34.7657 Y10.7516 
G01 X-34.8816 Y10.6357 
G01 X-35.0142 Y10.5393 
G01 X-35.1602 Y10.4649 
G01 X-35.3161 Y10.4142 
G01 X-35.4780 Y10.3886 
G01 X-35.6420 Y10.3886 
G01 X-35.8039 Y10.4142 
G01 X-35.9598 Y10.4649 
G01 X-36.1058 Y10.5393 
G01 X-36.2384 Y10.6357 
G01 X-36.3543 Y10.7516 
G01 X-36.4507 Y10.8842 
G01 X-36.5251 Y11.0302 
G01 X-36.5758 Y11.1861 
G01 X-36.6014 Y11.3480 
G00 Z3.0000  
G00 X-8.1026 Y21.1333 
G01 Z-0.0800 F254   
G01 X-8.1026 Y21.3863 F300   
G01 X-8.0696 Y21.6372 
G01 X-8.0041 Y21.8816 
G01 X-7.9072 Y22.1154 
G01 X-7.7807 Y22.3346 
G01 X-7.6267 Y22.5353 
G01 X-7.4477 Y22.7143 
G01 X-7.2470 Y22.8683 
G01 X-7.0278 Y22.9948 
G01 X-6.7940 Y23.0917 
G01 X-6.5496 Y23.1572 
G01 X-6.2987 Y23.1902 
G01 X-6.0457 Y23.1902 
G01 X-5.7948 Y23.1572 
G01 X-5.5504 Y23.0917 
G01 X-5.3166 Y22.9948 
G01 X-5.0974 Y22.8683 
G01 X-4.8967 Y22.7143 
G01 X-4.7177 Y22.5353 
G01 X-4.5637 Y22.3346 
G01 X-4.4372 Y22.1154 
G01 X-4.3403 Y21.8816 
G01 X-4.2748 Y21.6372 
G01 X-4.2418 Y21.3863 
G01 X-4.2418 Y21.1333 
G01 X-4.2748 Y20.8824 
G01 X-4.3403 Y20.6380 
G01 X-4.4372 Y20.4042 
G01 X-4.5637 Y20.1850 
G01 X-4.7177 Y19.9843 
G01 X-4.8967 Y19.8053 
G01 X-5.0974 Y19.6513 
G01 X-5.3166 Y19.5248 
G01 X-5.5504 Y19.4279 
G01 X-5.7948 Y19.3624 
G01 X-6.0457 Y19.3294 
G01 X-6.2987 Y19.3294 
G01 X-6.5496 Y19.3624 
G01 X-6.7940 Y19.4279 
G01 X-7.0278 Y19.5248 
G01 X-7.2470 Y19.6513 
G01 X-7.4477 Y19.8053 
G01 X-7.6267 Y19.9843 
G01 X-7.7807 Y20.1850 
G01 X-7.9072 Y20.4042 
G01 X-8.0041 Y20.6380 
G01 X-8.0696 Y20.8824 
G01 X-8.1026 Y21.1333 
G00 Z3.0000  
G00 X-8.1026 Y9.0937  
G01 Z-0.0800 F254   
G01 X-8.1026 Y9.3467  F300   
G01 X-8.0696 Y9.5976  
G01 X-8.0041 Y9.8420  
G01 X-7.9072 Y10.0758 
G01 X-7.7807 Y10.2950 
G01 X-7.6267 Y10.4957 
G01 X-7.4477 Y10.6747 
G01 X-7.2470 Y10.8287 
G01 X-7.0278 Y10.9552 
G01 X-6.7940 Y11.0521 
G01 X-6.5496 Y11.1176 
G01 X-6.2987 Y11.1506 
G01 X-6.0457 Y11.1506 
G01 X-5.7948 Y11.1176 
G01 X-5.5504 Y11.0521 
G01 X-5.3166 Y10.9552 
G01 X-5.0974 Y10.8287 
G01 X-4.8967 Y10.6747 
G01 X-4.7177 Y10.4957 
G01 X-4.5637 Y10.2950 
G01 X-4.4372 Y10.0758 
G01 X-4.3403 Y9.8420  
G01 X-4.2748 Y9.5976  
G01 X-4.2418 Y9.3467  
G01 X-4.2418 Y9.0937  
G01 X-4.2748 Y8.8428  
G01 X-4.3403 Y8.5984  
G01 X-4.4372 Y8.3646  
G01 X-4.5637 Y8.1454  
G01 X-4.7177 Y7.9447  
G01 X-4.8967 Y7.7657  
G01 X-5.0974 Y7.6117  
G01 X-5.3166 Y7.4852  
G01 X-5.5504 Y7.3883  
G01 X-5.7948 Y7.3228  
G01 X-6.0457 Y7.2898  
G01 X-6.2987 Y7.2898  
G01 X-6.5496 Y7.3228  
G01 X-6.7940 Y7.3883  
G01 X-7.0278 Y7.4852  
G01 X-7.2470 Y7.6117  
G01 X-7.4477 Y7.7657  
G01 X-7.6267 Y7.9447  
G01 X-7.7807 Y8.1454  
G01 X-7.9072 Y8.3646  
G01 X-8.0041 Y8.5984  
G01 X-8.0696 Y8.8428  
G01 X-8.1026 Y9.0937  
G00 Z3.0000  
G00 X-9.8806 Y13.8924 
G01 Z-0.0800 F254   
G01 X-9.8806 Y14.0876 F300   
G01 X-9.8425 Y14.2789 
G01 X-9.7679 Y14.4592 
G01 X-9.6594 Y14.6215 
G01 X-9.5215 Y14.7594 
G01 X-9.3592 Y14.8679 
G01 X-9.1789 Y14.9425 
G01 X-8.9876 Y14.9806 
G01 X-8.7924 Y14.9806 
G01 X-8.6011 Y14.9425 
G01 X-8.4208 Y14.8679 
G01 X-8.2585 Y14.7594 
G01 X-8.1205 Y14.6215 
G01 X-8.0121 Y14.4592 
G01 X-7.9375 Y14.2789 
G01 X-7.8994 Y14.0876 
G01 X-7.8994 Y13.8924 
G01 X-7.9375 Y13.7011 
G01 X-8.0121 Y13.5208 
G01 X-8.1205 Y13.3585 
G01 X-8.2585 Y13.2206 
G01 X-8.4208 Y13.1121 
G01 X-8.6011 Y13.0375 
G01 X-8.7924 Y12.9994 
G01 X-8.9876 Y12.9994 
G01 X-9.1789 Y13.0375 
G01 X-9.3592 Y13.1121 
G01 X-9.5215 Y13.2206 
G01 X-9.6594 Y13.3585 
G01 X-9.7679 Y13.5208 
G01 X-9.8425 Y13.7011 
G01 X-9.8806 Y13.8924 
G00 Z3.0000  
G00 X-9.8806 Y16.3924 
G01 Z-0.0800 F254   
G01 X-9.8806 Y16.5876 F300   
G01 X-9.8425 Y16.7789 
G01 X-9.7679 Y16.9592 
G01 X-9.6594 Y17.1215 
G01 X-9.5215 Y17.2594 
G01 X-9.3592 Y17.3679 
G01 X-9.1789 Y17.4425 
G01 X-8.9876 Y17.4806 
G01 X-8.7924 Y17.4806 
G01 X-8.6011 Y17.4425 
G01 X-8.4208 Y17.3679 
G01 X-8.2585 Y17.2594 
G01 X-8.1205 Y17.1215 
G01 X-8.0121 Y16.9592 
G01 X-7.9375 Y16.7789 
G01 X-7.8994 Y16.5876 
G01 X-7.8994 Y16.3924 
G01 X-7.9375 Y16.2011 
G01 X-8.0121 Y16.0208 
G01 X-8.1205 Y15.8585 
G01 X-8.2585 Y15.7206 
G01 X-8.4208 Y15.6121 
G01 X-8.6011 Y15.5375 
G01 X-8.7924 Y15.4994 
G01 X-8.9876 Y15.4994 
G01 X-9.1789 Y15.5375 
G01 X-9.3592 Y15.6121 
G01 X-9.5215 Y15.7206 
G01 X-9.6594 Y15.8585 
G01 X-9.7679 Y16.0208 
G01 X-9.8425 Y16.2011 
G01 X-9.8806 Y16.3924 
G00 Z3.0000  
G00 X-11.8618 Y16.3924 
G01 Z-0.0800 F254   
G01 X-11.8618 Y16.5876 F300   
G01 X-11.8237 Y16.7789 
G01 X-11.7491 Y16.9592 
G01 X-11.6406 Y17.1215 
G01 X-11.5027 Y17.2594 
G01 X-11.3404 Y17.3679 
G01 X-11.1601 Y17.4425 
G01 X-10.9688 Y17.4806 
G01 X-10.7736 Y17.4806 
G01 X-10.5823 Y17.4425 
G01 X-10.4020 Y17.3679 
G01 X-10.2397 Y17.2594 
G01 X-10.1018 Y17.1215 
G01 X-9.9933 Y16.9592 
G01 X-9.9187 Y16.7789 
G01 X-9.8806 Y16.5876 
G01 X-9.8806 Y16.3924 
G01 X-9.9187 Y16.2011 
G01 X-9.9933 Y16.0208 
G01 X-10.1018 Y15.8585 
G01 X-10.2397 Y15.7206 
G01 X-10.4020 Y15.6121 
G01 X-10.5823 Y15.5375 
G01 X-10.7736 Y15.4994 
G01 X-10.9688 Y15.4994 
G01 X-11.1601 Y15.5375 
G01 X-11.3404 Y15.6121 
G01 X-11.5027 Y15.7206 
G01 X-11.6406 Y15.8585 
G01 X-11.7491 Y16.0208 
G01 X-11.8237 Y16.2011 
G01 X-11.8618 Y16.3924 
G00 Z3.0000  
G00 X-11.8618 Y13.8924 
G01 Z-0.0800 F254   
G01 X-11.8618 Y14.0876 F300   
G01 X-11.8237 Y14.2789 
G01 X-11.7491 Y14.4592 
G01 X-11.6406 Y14.6215 
G01 X-11.5027 Y14.7594 
G01 X-11.3404 Y14.8679 
G01 X-11.1601 Y14.9425 
G01 X-10.9688 Y14.9806 
G01 X-10.7736 Y14.9806 
G01 X-10.5823 Y14.9425 
G01 X-10.4020 Y14.8679 
G01 X-10.2397 Y14.7594 
G01 X-10.1018 Y14.6215 
G01 X-9.9933 Y14.4592 
G01 X-9.9187 Y14.2789 
G01 X-9.8806 Y14.0876 
G01 X-9.8806 Y13.8924 
G01 X-9.9187 Y13.7011 
G01 X-9.9933 Y13.5208 
G01 X-10.1018 Y13.3585 
G01 X-10.2397 Y13.2206 
G01 X-10.4020 Y13.1121 
G01 X-10.5823 Y13.0375 
G01 X-10.7736 Y12.9994 
G01 X-10.9688 Y12.9994 
G01 X-11.1601 Y13.0375 
G01 X-11.3404 Y13.1121 
G01 X-11.5027 Y13.2206 
G01 X-11.6406 Y13.3585 
G01 X-11.7491 Y13.5208 
G01 X-11.8237 Y13.7011 
G01 X-11.8618 Y13.8924 
G00 Z3.0000  
G00 X-1.9362 Y12.1920 
G01 Z-0.0800 F254   
G01 X-1.9512 Y12.2221 F300   
G01 X-1.9680 Y12.2511 
G01 X-1.9706 Y12.2608 
G01 X-2.1700 Y12.6596 
G01 X-2.1874 Y12.7448 
G01 X-2.1822 Y12.8316 
G01 X-2.1547 Y12.9141 
G01 X-2.1068 Y12.9866 
G01 X-2.0417 Y13.0443 
G01 X-1.9640 Y13.0832 
G01 X-1.8788 Y13.1006 
G01 X-1.7920 Y13.0954 
G01 X-1.7095 Y13.0679 
G01 X-1.6370 Y13.0200 
G01 X-1.5793 Y12.9549 
G01 X-1.5049 Y12.8061 
G01 X-1.4732 Y12.8377 
G01 X-1.4376 Y12.8734 
G01 X-1.4732 Y12.8940 
G01 X-1.5347 Y12.9554 
G01 X-1.5782 Y13.0307 
G01 X-1.6007 Y13.1147 
G01 X-1.6007 Y13.9813 
G01 X-1.5948 Y14.0033 
G01 X-1.6168 Y13.9974 
G01 X-1.7038 Y13.9974 
G01 X-1.7877 Y14.0199 
G01 X-1.8630 Y14.0634 
G01 X-2.0579 Y14.2583 
G01 X-2.1194 Y14.3197 
G01 X-2.1629 Y14.3950 
G01 X-2.1854 Y14.4790 
G01 X-2.1854 Y14.9558 
G01 X-2.1629 Y15.0397 
G01 X-2.1194 Y15.1150 
G01 X-1.9245 Y15.3099 
G01 X-1.8630 Y15.3714 
G01 X-1.7877 Y15.4149 
G01 X-1.7038 Y15.4374 
G01 X-1.5964 Y15.4374 
G01 X-1.6007 Y15.4535 
G01 X-1.6007 Y16.3201 
G01 X-1.5964 Y16.3362 
G01 X-1.7038 Y16.3362 
G01 X-1.7208 Y16.3407 
G01 X-1.7877 Y16.3587 
G01 X-1.8630 Y16.4022 
G01 X-2.0579 Y16.5971 
G01 X-2.1194 Y16.6585 
G01 X-2.1629 Y16.7338 
G01 X-2.1854 Y16.8178 
G01 X-2.1854 Y17.2946 
G01 X-2.1629 Y17.3785 
G01 X-2.1194 Y17.4538 
G01 X-2.0223 Y17.5510 
G01 X-2.0579 Y17.5716 
G01 X-2.1194 Y17.6330 
G01 X-2.1629 Y17.7083 
G01 X-2.1854 Y17.7923 
G01 X-2.1854 Y18.6589 
G01 X-2.1629 Y18.7428 
G01 X-2.1194 Y18.8181 
G01 X-2.0579 Y18.8796 
G01 X-1.9826 Y18.9231 
G01 X-1.8987 Y18.9456 
G01 X-1.6168 Y18.9456 
G01 X-1.5328 Y18.9231 
G01 X-1.4576 Y18.8796 
G01 X-0.7439 Y18.1660 
G01 X-0.6423 Y18.1660 
G01 X-0.5583 Y18.1435 
G01 X-0.4831 Y18.1000 
G01 X-0.4216 Y18.0385 
G01 X-0.3781 Y17.9632 
G01 X-0.3556 Y17.8793 
G01 X-0.3556 Y17.7923 
G01 X-0.3781 Y17.7083 
G01 X-0.4216 Y17.6330 
G01 X-0.4831 Y17.5716 
G01 X-0.5187 Y17.5510 
G01 X-0.4256 Y17.4578 
G01 X-0.4216 Y17.4538 
G01 X-0.3781 Y17.3785 
G01 X-0.3606 Y17.3131 
G01 X-0.3556 Y17.2946 
G01 X-0.3556 Y16.8178 
G01 X-0.3781 Y16.7338 
G01 X-0.4216 Y16.6585 
G01 X-0.6165 Y16.4636 
G01 X-0.6779 Y16.4022 
G01 X-0.7532 Y16.3587 
G01 X-0.8372 Y16.3362 
G01 X-0.9446 Y16.3362 
G01 X-0.9403 Y16.3201 
G01 X-0.9403 Y15.4535 
G01 X-0.9446 Y15.4374 
G01 X-0.8372 Y15.4374 
G01 X-0.7532 Y15.4149 
G01 X-0.6779 Y15.3714 
G01 X-0.6740 Y15.3674 
G01 X-0.6165 Y15.3099 
G01 X-0.4256 Y15.1190 
G01 X-0.4216 Y15.1150 
G01 X-0.3781 Y15.0397 
G01 X-0.3606 Y14.9743 
G01 X-0.3556 Y14.9558 
G01 X-0.3556 Y14.4790 
G01 X-0.3781 Y14.3950 
G01 X-0.4216 Y14.3197 
G01 X-0.6779 Y14.0634 
G01 X-0.7532 Y14.0199 
G01 X-0.8372 Y13.9974 
G01 X-0.9242 Y13.9974 
G01 X-0.9462 Y14.0033 
G01 X-0.9403 Y13.9813 
G01 X-0.9403 Y13.1147 
G01 X-0.9446 Y13.0986 
G01 X-0.8372 Y13.0986 
G01 X-0.7532 Y13.0761 
G01 X-0.6796 Y13.0336 
G01 X-0.6165 Y12.9711 
G01 X-0.4216 Y12.7762 
G01 X-0.3781 Y12.7009 
G01 X-0.3602 Y12.6340 
G01 X-0.3556 Y12.6170 
G01 X-0.3556 Y12.1402 
G01 X-0.3781 Y12.0562 
G01 X-0.4216 Y11.9809 
G01 X-0.4831 Y11.9195 
G01 X-0.6779 Y11.7246 
G01 X-0.7532 Y11.6811 
G01 X-0.8372 Y11.6586 
G01 X-1.3140 Y11.6586 
G01 X-1.3979 Y11.6811 
G01 X-1.4138 Y11.6903 
G01 X-1.4732 Y11.7246 
G01 X-1.5224 Y11.7738 
G01 X-1.8701 Y12.1215 
G01 X-1.8785 Y12.1270 
G01 X-1.9008 Y12.1521 
G01 X-1.9245 Y12.1758 
G01 X-1.9295 Y12.1845 
G01 X-1.9362 Y12.1920 
G00 Z3.0000  
G00 X-30.2840 Y18.1864 
G01 Z-0.0800 F254   
G01 X-34.7712 Y18.1864 F300   
G01 X-34.7988 Y18.1588 
G01 X-34.9476 Y18.0507 
G01 X-35.1115 Y17.9672 
G01 X-35.2864 Y17.9104 
G01 X-35.4680 Y17.8816 
G01 X-35.6520 Y17.8816 
G01 X-35.8336 Y17.9104 
G01 X-36.0085 Y17.9672 
G01 X-36.1724 Y18.0507 
G01 X-36.3212 Y18.1588 
G01 X-36.4512 Y18.2888 
G01 X-36.5593 Y18.4376 
G01 X-36.6428 Y18.6015 
G01 X-36.6996 Y18.7764 
G01 X-36.7284 Y18.9580 
G01 X-36.7284 Y19.1420 
G01 X-36.6996 Y19.3236 
G01 X-36.6428 Y19.4985 
G01 X-36.5593 Y19.6624 
G01 X-36.4512 Y19.8112 
G01 X-36.3212 Y19.9412 
G01 X-36.1724 Y20.0493 
G01 X-36.0085 Y20.1328 
G01 X-35.8336 Y20.1896 
G01 X-35.6520 Y20.2184 
G01 X-35.4680 Y20.2184 
G01 X-35.2864 Y20.1896 
G01 X-35.1115 Y20.1328 
G01 X-34.9476 Y20.0493 
G01 X-34.7988 Y19.9412 
G01 X-34.6688 Y19.8112 
G01 X-34.5607 Y19.6624 
G01 X-34.4772 Y19.4985 
G01 X-34.4204 Y19.3236 
G01 X-34.4012 Y19.2024 
G01 X-30.0067 Y19.2024 
G01 X-29.8775 Y19.1678 
G01 X-29.7617 Y19.1009 
G01 X-29.6671 Y19.0063 
G01 X-25.1720 Y14.5112 
G01 X-25.0837 Y14.5288 
G01 X-24.9035 Y14.5288 
G01 X-24.7269 Y14.4937 
G01 X-24.5605 Y14.4247 
G01 X-24.4107 Y14.3247 
G01 X-24.2833 Y14.1973 
G01 X-24.1833 Y14.0475 
G01 X-24.1143 Y13.8811 
G01 X-24.0792 Y13.7045 
G01 X-24.0792 Y13.5243 
G01 X-24.1143 Y13.3477 
G01 X-24.1833 Y13.1813 
G01 X-24.2833 Y13.0315 
G01 X-24.4107 Y12.9041 
G01 X-24.5605 Y12.8041 
G01 X-24.7269 Y12.7351 
G01 X-24.9035 Y12.7000 
G01 X-25.0837 Y12.7000 
G01 X-25.2603 Y12.7351 
G01 X-25.4267 Y12.8041 
G01 X-25.5765 Y12.9041 
G01 X-25.7039 Y13.0315 
G01 X-25.8039 Y13.1813 
G01 X-25.8729 Y13.3477 
G01 X-25.9080 Y13.5243 
G01 X-25.9080 Y13.7045 
G01 X-25.8904 Y13.7928 
G01 X-30.2840 Y18.1864 
G00 Z3.0000  
G00 X-30.0808 Y15.5448 
G01 Z-0.0800 F254   
G01 X-34.9007 Y15.5448 F300   
G01 X-34.9476 Y15.5107 
G01 X-35.1115 Y15.4272 
G01 X-35.2864 Y15.3704 
G01 X-35.4680 Y15.3416 
G01 X-35.6520 Y15.3416 
G01 X-35.8336 Y15.3704 
G01 X-36.0085 Y15.4272 
G01 X-36.1724 Y15.5107 
G01 X-36.3212 Y15.6188 
G01 X-36.4512 Y15.7488 
G01 X-36.5593 Y15.8976 
G01 X-36.6428 Y16.0615 
G01 X-36.6996 Y16.2364 
G01 X-36.7284 Y16.4180 
G01 X-36.7284 Y16.6020 
G01 X-36.6996 Y16.7836 
G01 X-36.6428 Y16.9585 
G01 X-36.5593 Y17.1224 
G01 X-36.4512 Y17.2712 
G01 X-36.3212 Y17.4012 
G01 X-36.1724 Y17.5093 
G01 X-36.0085 Y17.5928 
G01 X-35.8336 Y17.6496 
G01 X-35.6520 Y17.6784 
G01 X-35.4680 Y17.6784 
G01 X-35.2864 Y17.6496 
G01 X-35.1115 Y17.5928 
G01 X-34.9476 Y17.5093 
G01 X-34.7988 Y17.4012 
G01 X-34.6688 Y17.2712 
G01 X-34.5607 Y17.1224 
G01 X-34.4772 Y16.9585 
G01 X-34.4204 Y16.7836 
G01 X-34.3916 Y16.6020 
G01 X-34.3916 Y16.5608 
G01 X-29.8035 Y16.5608 
G01 X-29.6743 Y16.5262 
G01 X-29.5585 Y16.4593 
G01 X-29.4639 Y16.3647 
G01 X-25.1720 Y12.0728 
G01 X-25.0837 Y12.0904 
G01 X-24.9035 Y12.0904 
G01 X-24.7269 Y12.0553 
G01 X-24.5605 Y11.9863 
G01 X-24.4107 Y11.8863 
G01 X-24.2833 Y11.7589 
G01 X-24.1833 Y11.6091 
G01 X-24.1143 Y11.4427 
G01 X-24.0792 Y11.2661 
G01 X-24.0792 Y11.0859 
G01 X-24.1143 Y10.9093 
G01 X-24.1833 Y10.7429 
G01 X-24.2833 Y10.5931 
G01 X-24.4107 Y10.4657 
G01 X-24.5605 Y10.3657 
G01 X-24.7269 Y10.2967 
G01 X-24.9035 Y10.2616 
G01 X-25.0837 Y10.2616 
G01 X-25.2603 Y10.2967 
G01 X-25.4267 Y10.3657 
G01 X-25.5765 Y10.4657 
G01 X-25.7039 Y10.5931 
G01 X-25.8039 Y10.7429 
G01 X-25.8729 Y10.9093 
G01 X-25.9080 Y11.0859 
G01 X-25.9080 Y11.2661 
G01 X-25.8904 Y11.3544 
G01 X-30.0808 Y15.5448 
G00 Z3.0000  
G00 X-36.7284 Y13.8780 
G01 Z-0.0800 F254   
G01 X-36.7284 Y14.0620 F300   
G01 X-36.6996 Y14.2436 
G01 X-36.6428 Y14.4185 
G01 X-36.5593 Y14.5824 
G01 X-36.4512 Y14.7312 
G01 X-36.3212 Y14.8612 
G01 X-36.1724 Y14.9693 
G01 X-36.0085 Y15.0528 
G01 X-35.8336 Y15.1096 
G01 X-35.6520 Y15.1384 
G01 X-35.4680 Y15.1384 
G01 X-35.2864 Y15.1096 
G01 X-35.1115 Y15.0528 
G01 X-34.9476 Y14.9693 
G01 X-34.7988 Y14.8612 
G01 X-34.6688 Y14.7312 
G01 X-34.5607 Y14.5824 
G01 X-34.4772 Y14.4185 
G01 X-34.4204 Y14.2436 
G01 X-34.3916 Y14.0620 
G01 X-34.3916 Y13.8780 
G01 X-34.4204 Y13.6964 
G01 X-34.4772 Y13.5215 
G01 X-34.5607 Y13.3576 
G01 X-34.6688 Y13.2088 
G01 X-34.7988 Y13.0788 
G01 X-34.9476 Y12.9707 
G01 X-35.1115 Y12.8872 
G01 X-35.2864 Y12.8304 
G01 X-35.4680 Y12.8016 
G01 X-35.6520 Y12.8016 
G01 X-35.8336 Y12.8304 
G01 X-36.0085 Y12.8872 
G01 X-36.1724 Y12.9707 
G01 X-36.3212 Y13.0788 
G01 X-36.4512 Y13.2088 
G01 X-36.5593 Y13.3576 
G01 X-36.6428 Y13.5215 
G01 X-36.6996 Y13.6964 
G01 X-36.7284 Y13.8780 
G00 Z3.0000  
G00 X-36.7284 Y11.3380 
G01 Z-0.0800 F254   
G01 X-36.7284 Y11.5220 F300   
G01 X-36.6996 Y11.7036 
G01 X-36.6428 Y11.8785 
G01 X-36.5593 Y12.0424 
G01 X-36.4512 Y12.1912 
G01 X-36.3212 Y12.3212 
G01 X-36.1724 Y12.4293 
G01 X-36.0085 Y12.5128 
G01 X-35.8336 Y12.5696 
G01 X-35.6520 Y12.5984 
G01 X-35.4680 Y12.5984 
G01 X-35.2864 Y12.5696 
G01 X-35.1115 Y12.5128 
G01 X-34.9476 Y12.4293 
G01 X-34.7988 Y12.3212 
G01 X-34.6688 Y12.1912 
G01 X-34.5607 Y12.0424 
G01 X-34.4772 Y11.8785 
G01 X-34.4204 Y11.7036 
G01 X-34.3916 Y11.5220 
G01 X-34.3916 Y11.3380 
G01 X-34.4204 Y11.1564 
G01 X-34.4772 Y10.9815 
G01 X-34.5607 Y10.8176 
G01 X-34.6688 Y10.6688 
G01 X-34.7988 Y10.5388 
G01 X-34.9476 Y10.4307 
G01 X-35.1115 Y10.3472 
G01 X-35.2864 Y10.2904 
G01 X-35.4680 Y10.2616 
G01 X-35.6520 Y10.2616 
G01 X-35.8336 Y10.2904 
G01 X-36.0085 Y10.3472 
G01 X-36.1724 Y10.4307 
G01 X-36.3212 Y10.5388 
G01 X-36.4512 Y10.6688 
G01 X-36.5593 Y10.8176 
G01 X-36.6428 Y10.9815 
G01 X-36.6996 Y11.1564 
G01 X-36.7284 Y11.3380 
G00 Z3.0000  
G00 X-8.2296 Y21.1249 
G01 Z-0.0800 F254   
G01 X-8.2296 Y21.3947 F300   
G01 X-8.1944 Y21.6620 
G01 X-8.1246 Y21.9225 
G01 X-8.0214 Y22.1717 
G01 X-7.8865 Y22.4053 
G01 X-7.7224 Y22.6192 
G01 X-7.5316 Y22.8100 
G01 X-7.3177 Y22.9741 
G01 X-7.0841 Y23.1090 
G01 X-6.8349 Y23.2122 
G01 X-6.5744 Y23.2820 
G01 X-6.3071 Y23.3172 
G01 X-6.0373 Y23.3172 
G01 X-5.7700 Y23.2820 
G01 X-5.5095 Y23.2122 
G01 X-5.2603 Y23.1090 
G01 X-5.0267 Y22.9741 
G01 X-4.8128 Y22.8100 
G01 X-4.6220 Y22.6192 
G01 X-4.4579 Y22.4053 
G01 X-4.3230 Y22.1717 
G01 X-4.2198 Y21.9225 
G01 X-4.1500 Y21.6620 
G01 X-4.1148 Y21.3947 
G01 X-4.1148 Y21.1249 
G01 X-4.1500 Y20.8576 
G01 X-4.2198 Y20.5970 
G01 X-4.3230 Y20.3479 
G01 X-4.4579 Y20.1143 
G01 X-4.6220 Y19.9003 
G01 X-4.8128 Y19.7096 
G01 X-5.0267 Y19.5455 
G01 X-5.2603 Y19.4106 
G01 X-5.5095 Y19.3074 
G01 X-5.7700 Y19.2376 
G01 X-6.0373 Y19.2024 
G01 X-6.3071 Y19.2024 
G01 X-6.5744 Y19.2376 
G01 X-6.8349 Y19.3074 
G01 X-7.0841 Y19.4106 
G01 X-7.3177 Y19.5455 
G01 X-7.5316 Y19.7096 
G01 X-7.7224 Y19.9003 
G01 X-7.8865 Y20.1143 
G01 X-8.0214 Y20.3479 
G01 X-8.1246 Y20.5970 
G01 X-8.1944 Y20.8576 
G01 X-8.2296 Y21.1249 
G00 Z3.0000  
G00 X-8.2296 Y9.0853  
G01 Z-0.0800 F254   
G01 X-8.2296 Y9.3551  F300   
G01 X-8.1944 Y9.6224  
G01 X-8.1246 Y9.8829  
G01 X-8.0214 Y10.1321 
G01 X-7.8865 Y10.3657 
G01 X-7.7224 Y10.5796 
G01 X-7.5316 Y10.7704 
G01 X-7.3177 Y10.9345 
G01 X-7.0841 Y11.0694 
G01 X-6.8349 Y11.1726 
G01 X-6.5744 Y11.2424 
G01 X-6.3071 Y11.2776 
G01 X-6.0373 Y11.2776 
G01 X-5.7700 Y11.2424 
G01 X-5.5095 Y11.1726 
G01 X-5.2603 Y11.0694 
G01 X-5.0267 Y10.9345 
G01 X-4.8128 Y10.7704 
G01 X-4.6220 Y10.5796 
G01 X-4.4579 Y10.3657 
G01 X-4.3230 Y10.1321 
G01 X-4.2198 Y9.8829  
G01 X-4.1500 Y9.6224  
G01 X-4.1148 Y9.3551  
G01 X-4.1148 Y9.0853  
G01 X-4.1500 Y8.8180  
G01 X-4.2198 Y8.5575  
G01 X-4.3230 Y8.3083  
G01 X-4.4579 Y8.0747  
G01 X-4.6220 Y7.8608  
G01 X-4.8128 Y7.6700  
G01 X-5.0267 Y7.5059  
G01 X-5.2603 Y7.3710  
G01 X-5.5095 Y7.2678  
G01 X-5.7700 Y7.1980  
G01 X-6.0373 Y7.1628  
G01 X-6.3071 Y7.1628  
G01 X-6.5744 Y7.1980  
G01 X-6.8349 Y7.2678  
G01 X-7.0841 Y7.3710  
G01 X-7.3177 Y7.5059  
G01 X-7.5316 Y7.6700  
G01 X-7.7224 Y7.8608  
G01 X-7.8865 Y8.0747  
G01 X-8.0214 Y8.3083  
G01 X-8.1246 Y8.5575  
G01 X-8.1944 Y8.8180  
G01 X-8.2296 Y9.0853  
G00 Z3.0000  
G00 X-11.9888 Y16.4020 
G01 Z-0.0800 F254   
G01 X-11.9888 Y16.5780 F300   
G01 X-11.9613 Y16.7517 
G01 X-11.9069 Y16.9190 
G01 X-11.8271 Y17.0757 
G01 X-11.7237 Y17.2181 
G01 X-11.5993 Y17.3425 
G01 X-11.4569 Y17.4459 
G01 X-11.3002 Y17.5257 
G01 X-11.1329 Y17.5801 
G01 X-10.9592 Y17.6076 
G01 X-10.7832 Y17.6076 
G01 X-10.6095 Y17.5801 
G01 X-10.4422 Y17.5257 
G01 X-10.2855 Y17.4459 
G01 X-10.1431 Y17.3425 
G01 X-10.0187 Y17.2181 
G01 X-9.9153 Y17.0757 
G01 X-9.8806 Y17.0076 
G01 X-9.8459 Y17.0757 
G01 X-9.7425 Y17.2181 
G01 X-9.6181 Y17.3425 
G01 X-9.4757 Y17.4459 
G01 X-9.3190 Y17.5257 
G01 X-9.1517 Y17.5801 
G01 X-8.9780 Y17.6076 
G01 X-8.8020 Y17.6076 
G01 X-8.6283 Y17.5801 
G01 X-8.4610 Y17.5257 
G01 X-8.3042 Y17.4459 
G01 X-8.1619 Y17.3425 
G01 X-8.0375 Y17.2181 
G01 X-7.9341 Y17.0757 
G01 X-7.8543 Y16.9190 
G01 X-7.7999 Y16.7517 
G01 X-7.7724 Y16.5780 
G01 X-7.7724 Y16.4020 
G01 X-7.7999 Y16.2283 
G01 X-7.8543 Y16.0610 
G01 X-7.9341 Y15.9043 
G01 X-8.0375 Y15.7619 
G01 X-8.1619 Y15.6375 
G01 X-8.3042 Y15.5341 
G01 X-8.4610 Y15.4543 
G01 X-8.6283 Y15.3999 
G01 X-8.8020 Y15.3724 
G01 X-8.9780 Y15.3724 
G01 X-9.1517 Y15.3999 
G01 X-9.3190 Y15.4543 
G01 X-9.4757 Y15.5341 
G01 X-9.6181 Y15.6375 
G01 X-9.7425 Y15.7619 
G01 X-9.8459 Y15.9043 
G01 X-9.8806 Y15.9724 
G01 X-9.9153 Y15.9043 
G01 X-10.0187 Y15.7619 
G01 X-10.1431 Y15.6375 
G01 X-10.2855 Y15.5341 
G01 X-10.4422 Y15.4543 
G01 X-10.6095 Y15.3999 
G01 X-10.7832 Y15.3724 
G01 X-10.9592 Y15.3724 
G01 X-11.1329 Y15.3999 
G01 X-11.3002 Y15.4543 
G01 X-11.4569 Y15.5341 
G01 X-11.5993 Y15.6375 
G01 X-11.7237 Y15.7619 
G01 X-11.8271 Y15.9043 
G01 X-11.9069 Y16.0610 
G01 X-11.9613 Y16.2283 
G01 X-11.9888 Y16.4020 
G00 Z3.0000  
G00 X-11.9888 Y13.9020 
G01 Z-0.0800 F254   
G01 X-11.9888 Y14.0780 F300   
G01 X-11.9613 Y14.2517 
G01 X-11.9069 Y14.4190 
G01 X-11.8271 Y14.5757 
G01 X-11.7237 Y14.7181 
G01 X-11.5993 Y14.8425 
G01 X-11.4569 Y14.9459 
G01 X-11.3002 Y15.0257 
G01 X-11.1329 Y15.0801 
G01 X-10.9592 Y15.1076 
G01 X-10.7832 Y15.1076 
G01 X-10.6095 Y15.0801 
G01 X-10.4422 Y15.0257 
G01 X-10.2855 Y14.9459 
G01 X-10.1431 Y14.8425 
G01 X-10.0187 Y14.7181 
G01 X-9.9153 Y14.5757 
G01 X-9.8806 Y14.5076 
G01 X-9.8459 Y14.5757 
G01 X-9.7425 Y14.7181 
G01 X-9.6181 Y14.8425 
G01 X-9.4757 Y14.9459 
G01 X-9.3190 Y15.0257 
G01 X-9.1517 Y15.0801 
G01 X-8.9780 Y15.1076 
G01 X-8.8020 Y15.1076 
G01 X-8.6283 Y15.0801 
G01 X-8.4610 Y15.0257 
G01 X-8.3042 Y14.9459 
G01 X-8.1619 Y14.8425 
G01 X-8.0375 Y14.7181 
G01 X-7.9341 Y14.5757 
G01 X-7.8543 Y14.4190 
G01 X-7.7999 Y14.2517 
G01 X-7.7724 Y14.0780 
G01 X-7.7724 Y13.9020 
G01 X-7.7999 Y13.7283 
G01 X-7.8543 Y13.5610 
G01 X-7.9341 Y13.4043 
G01 X-8.0375 Y13.2619 
G01 X-8.1619 Y13.1375 
G01 X-8.3042 Y13.0341 
G01 X-8.4610 Y12.9543 
G01 X-8.6283 Y12.8999 
G01 X-8.8020 Y12.8724 
G01 X-8.9780 Y12.8724 
G01 X-9.1517 Y12.8999 
G01 X-9.3190 Y12.9543 
G01 X-9.4757 Y13.0341 
G01 X-9.6181 Y13.1375 
G01 X-9.7425 Y13.2619 
G01 X-9.8459 Y13.4043 
G01 X-9.8806 Y13.4724 
G01 X-9.9153 Y13.4043 
G01 X-10.0187 Y13.2619 
G01 X-10.1431 Y13.1375 
G01 X-10.2855 Y13.0341 
G01 X-10.4422 Y12.9543 
G01 X-10.6095 Y12.8999 
G01 X-10.7832 Y12.8724 
G01 X-10.9592 Y12.8724 
G01 X-11.1329 Y12.8999 
G01 X-11.3002 Y12.9543 
G01 X-11.4569 Y13.0341 
G01 X-11.5993 Y13.1375 
G01 X-11.7237 Y13.2619 
G01 X-11.8271 Y13.4043 
G01 X-11.9069 Y13.5610 
G01 X-11.9613 Y13.7283 
G01 X-11.9888 Y13.9020 
G00 Z3.0000  
G00 X-2.0423 Y12.1203 
G01 Z-0.0800 F254   
G01 X-2.0631 Y12.1619 F300   
G01 X-2.0863 Y12.2021 
G01 X-2.0899 Y12.2155 
G01 X-2.2910 Y12.6178 
G01 X-2.3152 Y12.7357 
G01 X-2.3080 Y12.8559 
G01 X-2.2699 Y12.9701 
G01 X-2.2036 Y13.0705 
G01 X-2.1135 Y13.1504 
G01 X-2.0058 Y13.2042 
G01 X-1.8879 Y13.2284 
G01 X-1.7677 Y13.2212 
G01 X-1.7277 Y13.2078 
G01 X-1.7277 Y13.8723 
G01 X-1.8368 Y13.9016 
G01 X-1.9410 Y13.9617 
G01 X-2.1359 Y14.1566 
G01 X-2.2210 Y14.2418 
G01 X-2.2812 Y14.3460 
G01 X-2.3044 Y14.4325 
G01 X-2.3124 Y14.4623 
G01 X-2.3124 Y14.9725 
G01 X-2.2812 Y15.0888 
G01 X-2.2210 Y15.1930 
G01 X-2.0261 Y15.3879 
G01 X-1.9410 Y15.4730 
G01 X-1.8368 Y15.5332 
G01 X-1.7277 Y15.5625 
G01 X-1.7277 Y16.2111 
G01 X-1.8368 Y16.2403 
G01 X-1.9410 Y16.3005 
G01 X-2.0261 Y16.3857 
G01 X-2.1359 Y16.4954 
G01 X-2.2210 Y16.5806 
G01 X-2.2812 Y16.6848 
G01 X-2.3044 Y16.7713 
G01 X-2.3124 Y16.8011 
G01 X-2.3124 Y17.3113 
G01 X-2.2812 Y17.4276 
G01 X-2.2210 Y17.5318 
G01 X-2.2094 Y17.5434 
G01 X-2.2210 Y17.5551 
G01 X-2.2812 Y17.6593 
G01 X-2.3124 Y17.7756 
G01 X-2.3124 Y18.6756 
G01 X-2.2812 Y18.7919 
G01 X-2.2210 Y18.8961 
G01 X-2.1359 Y18.9812 
G01 X-2.0317 Y19.0414 
G01 X-1.9154 Y19.0726 
G01 X-1.6001 Y19.0726 
G01 X-1.4838 Y19.0414 
G01 X-1.3796 Y18.9812 
G01 X-0.6913 Y18.2930 
G01 X-0.6256 Y18.2930 
G01 X-0.5093 Y18.2618 
G01 X-0.4051 Y18.2016 
G01 X-0.3199 Y18.1165 
G01 X-0.2598 Y18.0123 
G01 X-0.2286 Y17.8960 
G01 X-0.2286 Y17.7756 
G01 X-0.2598 Y17.6593 
G01 X-0.3199 Y17.5551 
G01 X-0.3316 Y17.5434 
G01 X-0.3199 Y17.5318 
G01 X-0.2598 Y17.4276 
G01 X-0.2286 Y17.3113 
G01 X-0.2286 Y16.8011 
G01 X-0.2598 Y16.6848 
G01 X-0.3199 Y16.5806 
G01 X-0.5148 Y16.3857 
G01 X-0.6000 Y16.3005 
G01 X-0.7029 Y16.2411 
G01 X-0.8133 Y16.2111 
G01 X-0.8133 Y15.5625 
G01 X-0.7880 Y15.5557 
G01 X-0.7042 Y15.5332 
G01 X-0.6000 Y15.4730 
G01 X-0.5148 Y15.3879 
G01 X-0.4051 Y15.2781 
G01 X-0.3199 Y15.1930 
G01 X-0.2598 Y15.0888 
G01 X-0.2286 Y14.9725 
G01 X-0.2286 Y14.4623 
G01 X-0.2598 Y14.3460 
G01 X-0.3199 Y14.2418 
G01 X-0.6000 Y13.9617 
G01 X-0.7042 Y13.9016 
G01 X-0.8133 Y13.8723 
G01 X-0.8133 Y13.2237 
G01 X-0.7907 Y13.2176 
G01 X-0.7042 Y13.1944 
G01 X-0.6000 Y13.1342 
G01 X-0.5148 Y13.0491 
G01 X-0.4051 Y12.9393 
G01 X-0.3199 Y12.8542 
G01 X-0.2598 Y12.7500 
G01 X-0.2286 Y12.6337 
G01 X-0.2286 Y12.1235 
G01 X-0.2598 Y12.0072 
G01 X-0.3199 Y11.9030 
G01 X-0.4051 Y11.8178 
G01 X-0.6000 Y11.6229 
G01 X-0.7042 Y11.5628 
G01 X-0.8205 Y11.5316 
G01 X-1.3307 Y11.5316 
G01 X-1.4470 Y11.5628 
G01 X-1.5512 Y11.6229 
G01 X-1.6030 Y11.6747 
G01 X-1.9508 Y12.0226 
G01 X-1.9624 Y12.0302 
G01 X-1.9933 Y12.0650 
G01 X-2.0261 Y12.0979 
G01 X-2.0331 Y12.1099 
G01 X-2.0423 Y12.1203 
G00 Z3.0000  
G00 X-30.3366 Y18.0594 
G01 Z-0.0800 F254   
G01 X-34.7196 Y18.0594 F300   
G01 X-34.8811 Y17.9421 
G01 X-35.0627 Y17.8495 
G01 X-35.2567 Y17.7865 
G01 X-35.2977 Y17.7800 
G01 X-35.2567 Y17.7735 
G01 X-35.0627 Y17.7105 
G01 X-34.8811 Y17.6179 
G01 X-34.7161 Y17.4981 
G01 X-34.5719 Y17.3539 
G01 X-34.4521 Y17.1889 
G01 X-34.3595 Y17.0073 
G01 X-34.2965 Y16.8133 
G01 X-34.2766 Y16.6878 
G01 X-29.8079 Y16.6878 
G01 X-29.6852 Y16.6634 
G01 X-29.5696 Y16.6155 
G01 X-29.4656 Y16.5460 
G01 X-29.3772 Y16.4576 
G01 X-25.1286 Y12.2090 
G01 X-25.0756 Y12.2174 
G01 X-24.9116 Y12.2174 
G01 X-24.7497 Y12.1918 
G01 X-24.5938 Y12.1411 
G01 X-24.4478 Y12.0667 
G01 X-24.3152 Y11.9703 
G01 X-24.1993 Y11.8544 
G01 X-24.1029 Y11.7218 
G01 X-24.0285 Y11.5758 
G01 X-23.9778 Y11.4199 
G01 X-23.9522 Y11.2580 
G01 X-23.9522 Y11.0940 
G01 X-23.9778 Y10.9321 
G01 X-24.0285 Y10.7762 
G01 X-24.1029 Y10.6302 
G01 X-24.1993 Y10.4976 
G01 X-24.3152 Y10.3817 
G01 X-24.4478 Y10.2853 
G01 X-24.5938 Y10.2109 
G01 X-24.7497 Y10.1602 
G01 X-24.9116 Y10.1346 
G01 X-25.0756 Y10.1346 
G01 X-25.2375 Y10.1602 
G01 X-25.3934 Y10.2109 
G01 X-25.5394 Y10.2853 
G01 X-25.6720 Y10.3817 
G01 X-25.7879 Y10.4976 
G01 X-25.8843 Y10.6302 
G01 X-25.9587 Y10.7762 
G01 X-26.0094 Y10.9321 
G01 X-26.0350 Y11.0940 
G01 X-26.0350 Y11.2580 
G01 X-26.0266 Y11.3110 
G01 X-30.1334 Y15.4178 
G01 X-34.8594 Y15.4178 
G01 X-34.8811 Y15.4021 
G01 X-35.0627 Y15.3095 
G01 X-35.2567 Y15.2465 
G01 X-35.2977 Y15.2400 
G01 X-35.2567 Y15.2335 
G01 X-35.0627 Y15.1705 
G01 X-34.8811 Y15.0779 
G01 X-34.7161 Y14.9581 
G01 X-34.5719 Y14.8139 
G01 X-34.4521 Y14.6489 
G01 X-34.3595 Y14.4673 
G01 X-34.2965 Y14.2733 
G01 X-34.2646 Y14.0720 
G01 X-34.2646 Y13.8680 
G01 X-34.2965 Y13.6667 
G01 X-34.3595 Y13.4727 
G01 X-34.4521 Y13.2911 
G01 X-34.5719 Y13.1261 
G01 X-34.7161 Y12.9819 
G01 X-34.8811 Y12.8621 
G01 X-35.0627 Y12.7695 
G01 X-35.2567 Y12.7065 
G01 X-35.2977 Y12.7000 
G01 X-35.2567 Y12.6935 
G01 X-35.0627 Y12.6305 
G01 X-34.8811 Y12.5379 
G01 X-34.7161 Y12.4181 
G01 X-34.5719 Y12.2739 
G01 X-34.4521 Y12.1089 
G01 X-34.3595 Y11.9273 
G01 X-34.2965 Y11.7333 
G01 X-34.2646 Y11.5320 
G01 X-34.2646 Y11.3280 
G01 X-34.2965 Y11.1267 
G01 X-34.3595 Y10.9327 
G01 X-34.4521 Y10.7511 
G01 X-34.5719 Y10.5861 
G01 X-34.7161 Y10.4419 
G01 X-34.8811 Y10.3221 
G01 X-35.0627 Y10.2295 
G01 X-35.2567 Y10.1665 
G01 X-35.4580 Y10.1346 
G01 X-35.6620 Y10.1346 
G01 X-35.8633 Y10.1665 
G01 X-36.0573 Y10.2295 
G01 X-36.2389 Y10.3221 
G01 X-36.4039 Y10.4419 
G01 X-36.5481 Y10.5861 
G01 X-36.6679 Y10.7511 
G01 X-36.7605 Y10.9327 
G01 X-36.8235 Y11.1267 
G01 X-36.8554 Y11.3280 
G01 X-36.8554 Y11.5320 
G01 X-36.8235 Y11.7333 
G01 X-36.7605 Y11.9273 
G01 X-36.6679 Y12.1089 
G01 X-36.5481 Y12.2739 
G01 X-36.4039 Y12.4181 
G01 X-36.2389 Y12.5379 
G01 X-36.0573 Y12.6305 
G01 X-35.8633 Y12.6935 
G01 X-35.8223 Y12.7000 
G01 X-35.8633 Y12.7065 
G01 X-36.0573 Y12.7695 
G01 X-36.2389 Y12.8621 
G01 X-36.4039 Y12.9819 
G01 X-36.5481 Y13.1261 
G01 X-36.6679 Y13.2911 
G01 X-36.7605 Y13.4727 
G01 X-36.8235 Y13.6667 
G01 X-36.8554 Y13.8680 
G01 X-36.8554 Y14.0720 
G01 X-36.8235 Y14.2733 
G01 X-36.7605 Y14.4673 
G01 X-36.6679 Y14.6489 
G01 X-36.5481 Y14.8139 
G01 X-36.4039 Y14.9581 
G01 X-36.2389 Y15.0779 
G01 X-36.0573 Y15.1705 
G01 X-35.8633 Y15.2335 
G01 X-35.8223 Y15.2400 
G01 X-35.8633 Y15.2465 
G01 X-36.0573 Y15.3095 
G01 X-36.2389 Y15.4021 
G01 X-36.4039 Y15.5219 
G01 X-36.5481 Y15.6661 
G01 X-36.6679 Y15.8311 
G01 X-36.7605 Y16.0127 
G01 X-36.8235 Y16.2067 
G01 X-36.8554 Y16.4080 
G01 X-36.8554 Y16.6120 
G01 X-36.8235 Y16.8133 
G01 X-36.7605 Y17.0073 
G01 X-36.6679 Y17.1889 
G01 X-36.5481 Y17.3539 
G01 X-36.4039 Y17.4981 
G01 X-36.2389 Y17.6179 
G01 X-36.0573 Y17.7105 
G01 X-35.8633 Y17.7735 
G01 X-35.8223 Y17.7800 
G01 X-35.8633 Y17.7865 
G01 X-36.0573 Y17.8495 
G01 X-36.2389 Y17.9421 
G01 X-36.4039 Y18.0619 
G01 X-36.5481 Y18.2061 
G01 X-36.6679 Y18.3711 
G01 X-36.7605 Y18.5527 
G01 X-36.8235 Y18.7467 
G01 X-36.8554 Y18.9480 
G01 X-36.8554 Y19.1519 
G01 X-36.8235 Y19.3533 
G01 X-36.7605 Y19.5473 
G01 X-36.6679 Y19.7289 
G01 X-36.5481 Y19.8939 
G01 X-36.4039 Y20.0381 
G01 X-36.2389 Y20.1579 
G01 X-36.0573 Y20.2505 
G01 X-35.8633 Y20.3135 
G01 X-35.6620 Y20.3454 
G01 X-35.4580 Y20.3454 
G01 X-35.2567 Y20.3135 
G01 X-35.0627 Y20.2505 
G01 X-34.8811 Y20.1579 
G01 X-34.7161 Y20.0381 
G01 X-34.5719 Y19.8939 
G01 X-34.4521 Y19.7289 
G01 X-34.3595 Y19.5473 
G01 X-34.2965 Y19.3533 
G01 X-34.2927 Y19.3294 
G01 X-30.0111 Y19.3294 
G01 X-29.8884 Y19.3050 
G01 X-29.7728 Y19.2571 
G01 X-29.6688 Y19.1876 
G01 X-29.5804 Y19.0992 
G01 X-25.1286 Y14.6474 
G01 X-25.0756 Y14.6558 
G01 X-24.9116 Y14.6558 
G01 X-24.7497 Y14.6302 
G01 X-24.5938 Y14.5795 
G01 X-24.4478 Y14.5051 
G01 X-24.3152 Y14.4087 
G01 X-24.1993 Y14.2928 
G01 X-24.1029 Y14.1602 
G01 X-24.0285 Y14.0142 
G01 X-23.9778 Y13.8583 
G01 X-23.9522 Y13.6964 
G01 X-23.9522 Y13.5324 
G01 X-23.9778 Y13.3705 
G01 X-24.0285 Y13.2146 
G01 X-24.1029 Y13.0686 
G01 X-24.1993 Y12.9360 
G01 X-24.3152 Y12.8201 
G01 X-24.4478 Y12.7237 
G01 X-24.5938 Y12.6493 
G01 X-24.7497 Y12.5986 
G01 X-24.9116 Y12.5730 
G01 X-25.0756 Y12.5730 
G01 X-25.2375 Y12.5986 
G01 X-25.3934 Y12.6493 
G01 X-25.5394 Y12.7237 
G01 X-25.6720 Y12.8201 
G01 X-25.7879 Y12.9360 
G01 X-25.8843 Y13.0686 
G01 X-25.9587 Y13.2146 
G01 X-26.0094 Y13.3705 
G01 X-26.0350 Y13.5324 
G01 X-26.0350 Y13.6964 
G01 X-26.0266 Y13.7494 
G01 X-30.3366 Y18.0594 
G00 Z3.0000  
G00 X-2.1571 Y12.0659 
G01 Z-0.0800 F254   
G01 X-2.1664 Y12.0845 F300   
G01 X-2.1780 Y12.1019 
G01 X-2.1921 Y12.1359 
G01 X-2.4035 Y12.5586 
G01 X-2.4338 Y12.6696 
G01 X-2.4420 Y12.7844 
G01 X-2.4276 Y12.8986 
G01 X-2.3912 Y13.0077 
G01 X-2.3342 Y13.1077 
G01 X-2.2588 Y13.1946 
G01 X-2.1679 Y13.2652 
G01 X-2.0650 Y13.3167 
G01 X-1.9540 Y13.3470 
G01 X-1.8547 Y13.3541 
G01 X-1.8547 Y13.7758 
G01 X-1.9370 Y13.8099 
G01 X-2.0327 Y13.8738 
G01 X-2.2276 Y14.0687 
G01 X-2.3090 Y14.1501 
G01 X-2.3729 Y14.2458 
G01 X-2.4169 Y14.3521 
G01 X-2.4307 Y14.4213 
G01 X-2.4394 Y14.4649 
G01 X-2.4394 Y14.9698 
G01 X-2.4169 Y15.0827 
G01 X-2.3729 Y15.1890 
G01 X-2.3090 Y15.2847 
G01 X-2.1141 Y15.4796 
G01 X-2.0327 Y15.5610 
G01 X-1.9370 Y15.6249 
G01 X-1.8547 Y15.6590 
G01 X-1.8547 Y16.1146 
G01 X-1.9370 Y16.1487 
G01 X-2.0129 Y16.1994 
G01 X-2.0327 Y16.2126 
G01 X-2.2276 Y16.4075 
G01 X-2.3090 Y16.4889 
G01 X-2.3729 Y16.5846 
G01 X-2.4169 Y16.6909 
G01 X-2.4307 Y16.7601 
G01 X-2.4394 Y16.8037 
G01 X-2.4394 Y17.3086 
G01 X-2.4169 Y17.4215 
G01 X-2.3729 Y17.5278 
G01 X-2.3625 Y17.5434 
G01 X-2.3729 Y17.5591 
G01 X-2.4169 Y17.6654 
G01 X-2.4394 Y17.7782 
G01 X-2.4394 Y18.6729 
G01 X-2.4169 Y18.7858 
G01 X-2.3729 Y18.8921 
G01 X-2.3090 Y18.9878 
G01 X-2.2276 Y19.0692 
G01 X-2.1319 Y19.1331 
G01 X-2.0256 Y19.1771 
G01 X-1.9127 Y19.1996 
G01 X-1.6028 Y19.1996 
G01 X-1.4899 Y19.1771 
G01 X-1.4868 Y19.1759 
G01 X-1.3836 Y19.1331 
G01 X-1.2898 Y19.0704 
G01 X-0.6387 Y18.4200 
G01 X-0.6283 Y18.4200 
G01 X-0.5154 Y18.3975 
G01 X-0.4091 Y18.3535 
G01 X-0.3134 Y18.2896 
G01 X-0.2320 Y18.2082 
G01 X-0.1681 Y18.1125 
G01 X-0.1241 Y18.0062 
G01 X-0.1016 Y17.8933 
G01 X-0.1016 Y17.7782 
G01 X-0.1241 Y17.6654 
G01 X-0.1681 Y17.5591 
G01 X-0.1785 Y17.5434 
G01 X-0.1681 Y17.5278 
G01 X-0.1241 Y17.4215 
G01 X-0.1016 Y17.3086 
G01 X-0.1016 Y16.8037 
G01 X-0.1241 Y16.6909 
G01 X-0.1681 Y16.5846 
G01 X-0.2320 Y16.4889 
G01 X-0.4269 Y16.2940 
G01 X-0.5083 Y16.2126 
G01 X-0.6040 Y16.1487 
G01 X-0.6863 Y16.1146 
G01 X-0.6863 Y15.6590 
G01 X-0.6040 Y15.6249 
G01 X-0.5083 Y15.5610 
G01 X-0.5040 Y15.5566 
G01 X-0.4269 Y15.4796 
G01 X-0.2363 Y15.2890 
G01 X-0.2320 Y15.2847 
G01 X-0.2198 Y15.2664 
G01 X-0.1681 Y15.1890 
G01 X-0.1241 Y15.0827 
G01 X-0.1016 Y14.9698 
G01 X-0.1016 Y14.4649 
G01 X-0.1241 Y14.3521 
G01 X-0.1681 Y14.2458 
G01 X-0.2320 Y14.1501 
G01 X-0.5083 Y13.8738 
G01 X-0.6040 Y13.8099 
G01 X-0.6863 Y13.7758 
G01 X-0.6863 Y13.3202 
G01 X-0.6040 Y13.2861 
G01 X-0.5083 Y13.2222 
G01 X-0.4269 Y13.1408 
G01 X-0.2320 Y12.9459 
G01 X-0.2188 Y12.9261 
G01 X-0.1681 Y12.8502 
G01 X-0.1241 Y12.7439 
G01 X-0.1016 Y12.6310 
G01 X-0.1016 Y12.1262 
G01 X-0.1241 Y12.0133 
G01 X-0.1681 Y11.9070 
G01 X-0.2320 Y11.8113 
G01 X-0.3134 Y11.7299 
G01 X-0.5083 Y11.5350 
G01 X-0.6040 Y11.4711 
G01 X-0.7103 Y11.4271 
G01 X-0.8232 Y11.4046 
G01 X-1.3280 Y11.4046 
G01 X-1.4409 Y11.4271 
G01 X-1.5472 Y11.4711 
G01 X-1.5909 Y11.5003 
G01 X-1.6429 Y11.5350 
G01 X-2.0587 Y11.9509 
G01 X-2.0865 Y11.9750 
G01 X-2.0993 Y11.9914 
G01 X-2.1141 Y12.0062 
G01 X-2.1345 Y12.0368 
G01 X-2.1571 Y12.0659 
G00 Z3.0000  
G00 X-12.1158 Y13.8920 
G01 Z-0.0800 F254   
G01 X-12.1158 Y14.0880 F300   
G01 X-12.0852 Y14.2814 
G01 X-12.0246 Y14.4678 
G01 X-11.9357 Y14.6423 
G01 X-11.8205 Y14.8008 
G01 X-11.6820 Y14.9393 
G01 X-11.5235 Y15.0545 
G01 X-11.3490 Y15.1434 
G01 X-11.1626 Y15.2040 
G01 X-10.9692 Y15.2346 
G01 X-10.7732 Y15.2346 
G01 X-10.5798 Y15.2040 
G01 X-10.3934 Y15.1434 
G01 X-10.2189 Y15.0545 
G01 X-10.0604 Y14.9393 
G01 X-9.9219 Y14.8008 
G01 X-9.8806 Y14.7440 
G01 X-9.8393 Y14.8008 
G01 X-9.7008 Y14.9393 
G01 X-9.5423 Y15.0545 
G01 X-9.3678 Y15.1434 
G01 X-9.1814 Y15.2040 
G01 X-8.9880 Y15.2346 
G01 X-8.7920 Y15.2346 
G01 X-8.5986 Y15.2040 
G01 X-8.4122 Y15.1434 
G01 X-8.2377 Y15.0545 
G01 X-8.0792 Y14.9393 
G01 X-7.9407 Y14.8008 
G01 X-7.8255 Y14.6423 
G01 X-7.7366 Y14.4678 
G01 X-7.6760 Y14.2814 
G01 X-7.6454 Y14.0880 
G01 X-7.6454 Y13.8920 
G01 X-7.6760 Y13.6986 
G01 X-7.7366 Y13.5122 
G01 X-7.8255 Y13.3377 
G01 X-7.9407 Y13.1792 
G01 X-8.0792 Y13.0407 
G01 X-8.2377 Y12.9255 
G01 X-8.4122 Y12.8366 
G01 X-8.5986 Y12.7760 
G01 X-8.7920 Y12.7454 
G01 X-8.9880 Y12.7454 
G01 X-9.1814 Y12.7760 
G01 X-9.3678 Y12.8366 
G01 X-9.5423 Y12.9255 
G01 X-9.7008 Y13.0407 
G01 X-9.8393 Y13.1792 
G01 X-9.8806 Y13.2360 
G01 X-9.9219 Y13.1792 
G01 X-10.0604 Y13.0407 
G01 X-10.2189 Y12.9255 
G01 X-10.3934 Y12.8366 
G01 X-10.5798 Y12.7760 
G01 X-10.7732 Y12.7454 
G01 X-10.9692 Y12.7454 
G01 X-11.1626 Y12.7760 
G01 X-11.3490 Y12.8366 
G01 X-11.5235 Y12.9255 
G01 X-11.6820 Y13.0407 
G01 X-11.8205 Y13.1792 
G01 X-11.9357 Y13.3377 
G01 X-12.0246 Y13.5122 
G01 X-12.0852 Y13.6986 
G01 X-12.1158 Y13.8920 
G00 Z3.0000  
G00 X-12.1158 Y16.3920 
G01 Z-0.0800 F254   
G01 X-12.1158 Y16.5880 F300   
G01 X-12.0852 Y16.7814 
G01 X-12.0246 Y16.9678 
G01 X-11.9357 Y17.1423 
G01 X-11.8205 Y17.3008 
G01 X-11.6820 Y17.4393 
G01 X-11.5235 Y17.5545 
G01 X-11.3490 Y17.6434 
G01 X-11.1626 Y17.7040 
G01 X-10.9692 Y17.7346 
G01 X-10.7732 Y17.7346 
G01 X-10.5798 Y17.7040 
G01 X-10.3934 Y17.6434 
G01 X-10.2189 Y17.5545 
G01 X-10.0604 Y17.4393 
G01 X-9.9219 Y17.3008 
G01 X-9.8806 Y17.2440 
G01 X-9.8393 Y17.3008 
G01 X-9.7008 Y17.4393 
G01 X-9.5423 Y17.5545 
G01 X-9.3678 Y17.6434 
G01 X-9.1814 Y17.7040 
G01 X-8.9880 Y17.7346 
G01 X-8.7920 Y17.7346 
G01 X-8.5986 Y17.7040 
G01 X-8.4122 Y17.6434 
G01 X-8.2377 Y17.5545 
G01 X-8.0792 Y17.4393 
G01 X-7.9407 Y17.3008 
G01 X-7.8255 Y17.1423 
G01 X-7.7366 Y16.9678 
G01 X-7.6760 Y16.7814 
G01 X-7.6454 Y16.5880 
G01 X-7.6454 Y16.3920 
G01 X-7.6760 Y16.1986 
G01 X-7.7366 Y16.0122 
G01 X-7.8255 Y15.8377 
G01 X-7.9407 Y15.6792 
G01 X-8.0792 Y15.5407 
G01 X-8.2377 Y15.4255 
G01 X-8.4122 Y15.3366 
G01 X-8.5986 Y15.2760 
G01 X-8.7920 Y15.2454 
G01 X-8.9880 Y15.2454 
G01 X-9.1814 Y15.2760 
G01 X-9.3678 Y15.3366 
G01 X-9.5423 Y15.4255 
G01 X-9.7008 Y15.5407 
G01 X-9.8393 Y15.6792 
G01 X-9.8806 Y15.7360 
G01 X-9.9219 Y15.6792 
G01 X-10.0604 Y15.5407 
G01 X-10.2189 Y15.4255 
G01 X-10.3934 Y15.3366 
G01 X-10.5798 Y15.2760 
G01 X-10.7732 Y15.2454 
G01 X-10.9692 Y15.2454 
G01 X-11.1626 Y15.2760 
G01 X-11.3490 Y15.3366 
G01 X-11.5235 Y15.4255 
G01 X-11.6820 Y15.5407 
G01 X-11.8205 Y15.6792 
G01 X-11.9357 Y15.8377 
G01 X-12.0246 Y16.0122 
G01 X-12.0852 Y16.1986 
G01 X-12.1158 Y16.3920 
G00 Z3.0000  
G00 X-8.3566 Y9.0770  
G01 Z-0.0800 F254   
G01 X-8.3566 Y9.3634  F300   
G01 X-8.3192 Y9.6473  
G01 X-8.2451 Y9.9239  
G01 X-8.1355 Y10.1884 
G01 X-7.9924 Y10.4364 
G01 X-7.8180 Y10.6636 
G01 X-7.6156 Y10.8660 
G01 X-7.3884 Y11.0404 
G01 X-7.1404 Y11.1835 
G01 X-6.8759 Y11.2931 
G01 X-6.5993 Y11.3672 
G01 X-6.3154 Y11.4046 
G01 X-6.0290 Y11.4046 
G01 X-5.7451 Y11.3672 
G01 X-5.4685 Y11.2931 
G01 X-5.2040 Y11.1835 
G01 X-4.9560 Y11.0404 
G01 X-4.7288 Y10.8660 
G01 X-4.5264 Y10.6636 
G01 X-4.3520 Y10.4364 
G01 X-4.2089 Y10.1884 
G01 X-4.0993 Y9.9239  
G01 X-4.0252 Y9.6473  
G01 X-3.9878 Y9.3634  
G01 X-3.9878 Y9.0770  
G01 X-4.0252 Y8.7931  
G01 X-4.0993 Y8.5165  
G01 X-4.2089 Y8.2520  
G01 X-4.3520 Y8.0040  
G01 X-4.5264 Y7.7768  
G01 X-4.7288 Y7.5744  
G01 X-4.9560 Y7.4000  
G01 X-5.2040 Y7.2569  
G01 X-5.4685 Y7.1473  
G01 X-5.7451 Y7.0732  
G01 X-6.0290 Y7.0358  
G01 X-6.3154 Y7.0358  
G01 X-6.5993 Y7.0732  
G01 X-6.8759 Y7.1473  
G01 X-7.1404 Y7.2569  
G01 X-7.3884 Y7.4000  
G01 X-7.6156 Y7.5744  
G01 X-7.8180 Y7.7768  
G01 X-7.9924 Y8.0040  
G01 X-8.1355 Y8.2520  
G01 X-8.2451 Y8.5165  
G01 X-8.3192 Y8.7931  
G01 X-8.3566 Y9.0770  
G00 Z3.0000  
G00 X-8.3566 Y21.1166 
G01 Z-0.0800 F254   
G01 X-8.3566 Y21.4030 F300   
G01 X-8.3192 Y21.6869 
G01 X-8.2451 Y21.9635 
G01 X-8.1355 Y22.2280 
G01 X-7.9924 Y22.4760 
G01 X-7.8180 Y22.7032 
G01 X-7.6156 Y22.9056 
G01 X-7.3884 Y23.0800 
G01 X-7.1404 Y23.2231 
G01 X-6.8759 Y23.3327 
G01 X-6.5993 Y23.4068 
G01 X-6.3154 Y23.4442 
G01 X-6.0290 Y23.4442 
G01 X-5.7451 Y23.4068 
G01 X-5.4685 Y23.3327 
G01 X-5.2040 Y23.2231 
G01 X-4.9560 Y23.0800 
G01 X-4.7288 Y22.9056 
G01 X-4.5264 Y22.7032 
G01 X-4.3520 Y22.4760 
G01 X-4.2089 Y22.2280 
G01 X-4.0993 Y21.9635 
G01 X-4.0252 Y21.6869 
G01 X-3.9878 Y21.4030 
G01 X-3.9878 Y21.1166 
G01 X-4.0252 Y20.8327 
G01 X-4.0993 Y20.5561 
G01 X-4.2089 Y20.2916 
G01 X-4.3520 Y20.0436 
G01 X-4.5264 Y19.8164 
G01 X-4.7288 Y19.6140 
G01 X-4.9560 Y19.4396 
G01 X-5.2040 Y19.2965 
G01 X-5.4685 Y19.1869 
G01 X-5.7451 Y19.1128 
G01 X-6.0290 Y19.0754 
G01 X-6.3154 Y19.0754 
G01 X-6.5993 Y19.1128 
G01 X-6.8759 Y19.1869 
G01 X-7.1404 Y19.2965 
G01 X-7.3884 Y19.4396 
G01 X-7.6156 Y19.6140 
G01 X-7.8180 Y19.8164 
G01 X-7.9924 Y20.0436 
G01 X-8.1355 Y20.2916 
G01 X-8.2451 Y20.5561 
G01 X-8.3192 Y20.8327 
G01 X-8.3566 Y21.1166 
G00 Z3.0000  
G00 X-9.6089 Y15.3169 
G01 Z-0.0800 F254   
G01 X-9.7835 Y15.4438 F300   
G01 X-9.8806 Y15.5409 
G01 X-9.9777 Y15.4438 
G01 X-10.1523 Y15.3169 
G01 X-10.3033 Y15.2400 
G01 X-10.1523 Y15.1631 
G01 X-9.9777 Y15.0362 
G01 X-9.8806 Y14.9391 
G01 X-9.7835 Y15.0362 
G01 X-9.6089 Y15.1631 
G01 X-9.4579 Y15.2400 
G01 X-9.6089 Y15.3169 
G00 Z3.0000  
G00 X-30.3892 Y17.9324 
G01 Z-0.0800 F254   
G01 X-34.6783 Y17.9324 F300   
G01 X-34.8145 Y17.8335 
G01 X-34.9194 Y17.7800 
G01 X-34.8145 Y17.7265 
G01 X-34.6334 Y17.5949 
G01 X-34.4751 Y17.4366 
G01 X-34.3435 Y17.2555 
G01 X-34.2418 Y17.0560 
G01 X-34.1726 Y16.8431 
G01 X-34.1681 Y16.8148 
G01 X-29.7953 Y16.8148 
G01 X-29.6481 Y16.7855 
G01 X-29.5095 Y16.7281 
G01 X-29.3847 Y16.6447 
G01 X-29.2785 Y16.5385 
G01 X-26.1431 Y13.4031 
G01 X-26.1620 Y13.5224 
G01 X-26.1620 Y13.7052 
G01 X-30.3892 Y17.9324 
G00 Z3.0000  
G00 X-25.0844 Y12.3444 
G01 Z-0.0800 F254   
G01 X-24.9016 Y12.3444 F300   
G01 X-24.7200 Y12.3156 
G01 X-24.5451 Y12.2588 
G01 X-24.3812 Y12.1753 
G01 X-24.2324 Y12.0672 
G01 X-24.1024 Y11.9372 
G01 X-23.9943 Y11.7884 
G01 X-23.9108 Y11.6245 
G01 X-23.8540 Y11.4496 
G01 X-23.8252 Y11.2680 
G01 X-23.8252 Y11.0840 
G01 X-23.8540 Y10.9024 
G01 X-23.9108 Y10.7275 
G01 X-23.9943 Y10.5636 
G01 X-24.1024 Y10.4148 
G01 X-24.2324 Y10.2848 
G01 X-24.3812 Y10.1767 
G01 X-24.5451 Y10.0932 
G01 X-24.7200 Y10.0364 
G01 X-24.9016 Y10.0076 
G01 X-25.0856 Y10.0076 
G01 X-25.2672 Y10.0364 
G01 X-25.4421 Y10.0932 
G01 X-25.6060 Y10.1767 
G01 X-25.7548 Y10.2848 
G01 X-25.8848 Y10.4148 
G01 X-25.9929 Y10.5636 
G01 X-26.0764 Y10.7275 
G01 X-26.1332 Y10.9024 
G01 X-26.1620 Y11.0840 
G01 X-26.1620 Y11.2668 
G01 X-30.1860 Y15.2908 
G01 X-34.8197 Y15.2908 
G01 X-34.9194 Y15.2400 
G01 X-34.8145 Y15.1865 
G01 X-34.6334 Y15.0549 
G01 X-34.4751 Y14.8966 
G01 X-34.3435 Y14.7155 
G01 X-34.2418 Y14.5160 
G01 X-34.1726 Y14.3031 
G01 X-34.1376 Y14.0819 
G01 X-34.1376 Y13.8581 
G01 X-34.1726 Y13.6369 
G01 X-34.2418 Y13.4240 
G01 X-34.3435 Y13.2245 
G01 X-34.4751 Y13.0434 
G01 X-34.6334 Y12.8851 
G01 X-34.8145 Y12.7535 
G01 X-34.9194 Y12.7000 
G01 X-34.8145 Y12.6465 
G01 X-34.6334 Y12.5149 
G01 X-34.4751 Y12.3566 
G01 X-34.3435 Y12.1755 
G01 X-34.2418 Y11.9760 
G01 X-34.1726 Y11.7631 
G01 X-34.1376 Y11.5419 
G01 X-34.1376 Y11.3181 
G01 X-34.1726 Y11.0969 
G01 X-34.2418 Y10.8840 
G01 X-34.3435 Y10.6845 
G01 X-34.4751 Y10.5034 
G01 X-34.6334 Y10.3451 
G01 X-34.8145 Y10.2135 
G01 X-35.0140 Y10.1118 
G01 X-35.2269 Y10.0426 
G01 X-35.4481 Y10.0076 
G01 X-35.6719 Y10.0076 
G01 X-35.8931 Y10.0426 
G01 X-36.1060 Y10.1118 
G01 X-36.3055 Y10.2135 
G01 X-36.4866 Y10.3451 
G01 X-36.6449 Y10.5034 
G01 X-36.7765 Y10.6845 
G01 X-36.8782 Y10.8840 
G01 X-36.9474 Y11.0969 
G01 X-36.9824 Y11.3181 
G01 X-36.9824 Y11.5419 
G01 X-36.9474 Y11.7631 
G01 X-36.8782 Y11.9760 
G01 X-36.7765 Y12.1755 
G01 X-36.6449 Y12.3566 
G01 X-36.4866 Y12.5149 
G01 X-36.3055 Y12.6465 
G01 X-36.2006 Y12.7000 
G01 X-36.3055 Y12.7535 
G01 X-36.4866 Y12.8851 
G01 X-36.6449 Y13.0434 
G01 X-36.7765 Y13.2245 
G01 X-36.8782 Y13.4240 
G01 X-36.9474 Y13.6369 
G01 X-36.9824 Y13.8581 
G01 X-36.9824 Y14.0819 
G01 X-36.9474 Y14.3031 
G01 X-36.8782 Y14.5160 
G01 X-36.7765 Y14.7155 
G01 X-36.6449 Y14.8966 
G01 X-36.4866 Y15.0549 
G01 X-36.3055 Y15.1865 
G01 X-36.2006 Y15.2400 
G01 X-36.3055 Y15.2935 
G01 X-36.4866 Y15.4251 
G01 X-36.6449 Y15.5834 
G01 X-36.7765 Y15.7645 
G01 X-36.8782 Y15.9640 
G01 X-36.9474 Y16.1769 
G01 X-36.9824 Y16.3981 
G01 X-36.9824 Y16.6219 
G01 X-36.9474 Y16.8431 
G01 X-36.8782 Y17.0560 
G01 X-36.7765 Y17.2555 
G01 X-36.6449 Y17.4366 
G01 X-36.4866 Y17.5949 
G01 X-36.3055 Y17.7265 
G01 X-36.2006 Y17.7800 
G01 X-36.3055 Y17.8335 
G01 X-36.4866 Y17.9651 
G01 X-36.6449 Y18.1234 
G01 X-36.7765 Y18.3045 
G01 X-36.8782 Y18.5040 
G01 X-36.9474 Y18.7169 
G01 X-36.9824 Y18.9381 
G01 X-36.9824 Y19.1619 
G01 X-36.9474 Y19.3831 
G01 X-36.8782 Y19.5960 
G01 X-36.7765 Y19.7955 
G01 X-36.6449 Y19.9766 
G01 X-36.4866 Y20.1349 
G01 X-36.3055 Y20.2665 
G01 X-36.1060 Y20.3682 
G01 X-35.8931 Y20.4374 
G01 X-35.6719 Y20.4724 
G01 X-35.4481 Y20.4724 
G01 X-35.2269 Y20.4374 
G01 X-35.0140 Y20.3682 
G01 X-34.8145 Y20.2665 
G01 X-34.6334 Y20.1349 
G01 X-34.4751 Y19.9766 
G01 X-34.3435 Y19.7955 
G01 X-34.2418 Y19.5960 
G01 X-34.1964 Y19.4564 
G01 X-29.9985 Y19.4564 
G01 X-29.8513 Y19.4271 
G01 X-29.7127 Y19.3697 
G01 X-29.5879 Y19.2863 
G01 X-29.4817 Y19.1801 
G01 X-25.0844 Y14.7828 
G01 X-24.9016 Y14.7828 
G01 X-24.7200 Y14.7540 
G01 X-24.5451 Y14.6972 
G01 X-24.3812 Y14.6137 
G01 X-24.2324 Y14.5056 
G01 X-24.1024 Y14.3756 
G01 X-23.9943 Y14.2268 
G01 X-23.9108 Y14.0629 
G01 X-23.8540 Y13.8880 
G01 X-23.8252 Y13.7064 
G01 X-23.8252 Y13.5224 
G01 X-23.8540 Y13.3408 
G01 X-23.9108 Y13.1659 
G01 X-23.9943 Y13.0020 
G01 X-24.1024 Y12.8532 
G01 X-24.2324 Y12.7232 
G01 X-24.3812 Y12.6151 
G01 X-24.5451 Y12.5316 
G01 X-24.7200 Y12.4748 
G01 X-24.9016 Y12.4460 
G01 X-25.0856 Y12.4460 
G01 X-25.2049 Y12.4649 
G01 X-25.0844 Y12.3444 
G00 Z3.0000  
G00 X-12.2428 Y13.8821 
G01 Z-0.0800 F254   
G01 X-12.2428 Y14.0979 F300   
G01 X-12.2090 Y14.3112 
G01 X-12.1423 Y14.5165 
G01 X-12.0443 Y14.7089 
G01 X-11.9174 Y14.8835 
G01 X-11.7647 Y15.0362 
G01 X-11.5901 Y15.1631 
G01 X-11.4391 Y15.2400 
G01 X-11.5901 Y15.3169 
G01 X-11.7647 Y15.4438 
G01 X-11.9174 Y15.5965 
G01 X-12.0443 Y15.7711 
G01 X-12.1423 Y15.9635 
G01 X-12.2090 Y16.1688 
G01 X-12.2428 Y16.3820 
G01 X-12.2428 Y16.5979 
G01 X-12.2090 Y16.8112 
G01 X-12.1423 Y17.0165 
G01 X-12.0443 Y17.2089 
G01 X-11.9174 Y17.3835 
G01 X-11.7647 Y17.5362 
G01 X-11.5901 Y17.6631 
G01 X-11.3977 Y17.7611 
G01 X-11.1924 Y17.8278 
G01 X-10.9791 Y17.8616 
G01 X-10.7633 Y17.8616 
G01 X-10.5500 Y17.8278 
G01 X-10.3447 Y17.7611 
G01 X-10.1523 Y17.6631 
G01 X-9.9777 Y17.5362 
G01 X-9.8806 Y17.4391 
G01 X-9.7835 Y17.5362 
G01 X-9.6089 Y17.6631 
G01 X-9.4165 Y17.7611 
G01 X-9.2112 Y17.8278 
G01 X-8.9979 Y17.8616 
G01 X-8.7820 Y17.8616 
G01 X-8.5688 Y17.8278 
G01 X-8.3635 Y17.7611 
G01 X-8.1711 Y17.6631 
G01 X-7.9965 Y17.5362 
G01 X-7.8438 Y17.3835 
G01 X-7.7169 Y17.2089 
G01 X-7.6189 Y17.0165 
G01 X-7.5522 Y16.8112 
G01 X-7.5184 Y16.5979 
G01 X-7.5184 Y16.3820 
G01 X-7.5522 Y16.1688 
G01 X-7.6189 Y15.9635 
G01 X-7.7169 Y15.7711 
G01 X-7.8438 Y15.5965 
G01 X-7.9965 Y15.4438 
G01 X-8.1711 Y15.3169 
G01 X-8.3221 Y15.2400 
G01 X-8.1711 Y15.1631 
G01 X-7.9965 Y15.0362 
G01 X-7.8438 Y14.8835 
G01 X-7.7169 Y14.7089 
G01 X-7.6189 Y14.5165 
G01 X-7.5522 Y14.3112 
G01 X-7.5184 Y14.0979 
G01 X-7.5184 Y13.8821 
G01 X-7.5522 Y13.6688 
G01 X-7.6189 Y13.4635 
G01 X-7.7169 Y13.2711 
G01 X-7.8438 Y13.0965 
G01 X-7.9965 Y12.9438 
G01 X-8.1711 Y12.8169 
G01 X-8.3635 Y12.7189 
G01 X-8.5688 Y12.6522 
G01 X-8.7820 Y12.6184 
G01 X-8.9979 Y12.6184 
G01 X-9.2112 Y12.6522 
G01 X-9.4165 Y12.7189 
G01 X-9.6089 Y12.8169 
G01 X-9.7835 Y12.9438 
G01 X-9.8806 Y13.0409 
G01 X-9.9777 Y12.9438 
G01 X-10.1523 Y12.8169 
G01 X-10.3447 Y12.7189 
G01 X-10.5500 Y12.6522 
G01 X-10.7633 Y12.6184 
G01 X-10.9791 Y12.6184 
G01 X-11.1924 Y12.6522 
G01 X-11.3977 Y12.7189 
G01 X-11.5901 Y12.8169 
G01 X-11.7647 Y12.9438 
G01 X-11.9174 Y13.0965 
G01 X-12.0443 Y13.2711 
G01 X-12.1423 Y13.4635 
G01 X-12.2090 Y13.6688 
G01 X-12.2428 Y13.8821 
G00 Z3.0000  
G00 X-2.2651 Y11.9979 
G01 Z-0.0800 F254   
G01 X-2.2764 Y12.0206 F300   
G01 X-2.2906 Y12.0417 
G01 X-2.3077 Y12.0831 
G01 X-2.5226 Y12.5130 
G01 X-2.5596 Y12.6481 
G01 X-2.5696 Y12.7879 
G01 X-2.5520 Y12.9268 
G01 X-2.5077 Y13.0598 
G01 X-2.4384 Y13.1815 
G01 X-2.3466 Y13.2873 
G01 X-2.2359 Y13.3732 
G01 X-2.1106 Y13.4358 
G01 X-1.9817 Y13.4711 
G01 X-1.9817 Y13.6909 
G01 X-1.9972 Y13.6973 
G01 X-2.1137 Y13.7752 
G01 X-2.3086 Y13.9701 
G01 X-2.4076 Y14.0691 
G01 X-2.4237 Y14.0932 
G01 X-2.4855 Y14.1856 
G01 X-2.5391 Y14.3150 
G01 X-2.5664 Y14.4524 
G01 X-2.5664 Y14.9823 
G01 X-2.5391 Y15.1197 
G01 X-2.4855 Y15.2492 
G01 X-2.4076 Y15.3657 
G01 X-2.2127 Y15.5606 
G01 X-2.1137 Y15.6596 
G01 X-1.9972 Y15.7374 
G01 X-1.9817 Y15.7439 
G01 X-1.9817 Y16.0297 
G01 X-1.9972 Y16.0361 
G01 X-2.1137 Y16.1140 
G01 X-2.2127 Y16.2130 
G01 X-2.3086 Y16.3089 
G01 X-2.4076 Y16.4079 
G01 X-2.4237 Y16.4320 
G01 X-2.4855 Y16.5244 
G01 X-2.5391 Y16.6538 
G01 X-2.5664 Y16.7912 
G01 X-2.5664 Y17.3211 
G01 X-2.5391 Y17.4585 
G01 X-2.5039 Y17.5434 
G01 X-2.5391 Y17.6283 
G01 X-2.5664 Y17.7657 
G01 X-2.5664 Y18.6854 
G01 X-2.5391 Y18.8228 
G01 X-2.4855 Y18.9523 
G01 X-2.4076 Y19.0687 
G01 X-2.3086 Y19.1678 
G01 X-2.1921 Y19.2456 
G01 X-2.0626 Y19.2992 
G01 X-1.9252 Y19.3266 
G01 X-1.5902 Y19.3266 
G01 X-1.5825 Y19.3250 
G01 X-1.4528 Y19.2992 
G01 X-1.4160 Y19.2840 
G01 X-1.3234 Y19.2456 
G01 X-1.2069 Y19.1678 
G01 X-0.5787 Y18.5396 
G01 X-0.4783 Y18.5197 
G01 X-0.3489 Y18.4660 
G01 X-0.2324 Y18.3882 
G01 X-0.1334 Y18.2891 
G01 X-0.0555 Y18.1727 
G01 X-0.0019 Y18.0432 
G01 X0.0254  Y17.9058 
G01 X0.0254  Y17.7657 
G01 X-0.0019 Y17.6283 
G01 X-0.0371 Y17.5434 
G01 X-0.0019 Y17.4585 
G01 X0.0142  Y17.3773 
G01 X0.0254  Y17.3211 
G01 X0.0254  Y16.7912 
G01 X-0.0019 Y16.6538 
G01 X-0.0555 Y16.5244 
G01 X-0.1334 Y16.4079 
G01 X-0.3283 Y16.2130 
G01 X-0.4273 Y16.1140 
G01 X-0.5438 Y16.0361 
G01 X-0.5593 Y16.0297 
G01 X-0.5593 Y15.7439 
G01 X-0.5438 Y15.7374 
G01 X-0.4496 Y15.6745 
G01 X-0.4273 Y15.6596 
G01 X-0.3283 Y15.5606 
G01 X-0.2324 Y15.4647 
G01 X-0.1334 Y15.3657 
G01 X-0.0555 Y15.2492 
G01 X-0.0019 Y15.1197 
G01 X0.0142  Y15.0385 
G01 X0.0254  Y14.9823 
G01 X0.0254  Y14.4524 
G01 X-0.0019 Y14.3150 
G01 X-0.0555 Y14.1856 
G01 X-0.1334 Y14.0691 
G01 X-0.4273 Y13.7752 
G01 X-0.5438 Y13.6973 
G01 X-0.5593 Y13.6909 
G01 X-0.5593 Y13.4051 
G01 X-0.5438 Y13.3986 
G01 X-0.4514 Y13.3369 
G01 X-0.4273 Y13.3208 
G01 X-0.3283 Y13.2218 
G01 X-0.2324 Y13.1259 
G01 X-0.1334 Y13.0269 
G01 X-0.0555 Y12.9104 
G01 X-0.0019 Y12.7809 
G01 X0.0148  Y12.6966 
G01 X0.0254  Y12.6435 
G01 X0.0254  Y12.1136 
G01 X-0.0019 Y11.9762 
G01 X-0.0555 Y11.8468 
G01 X-0.1334 Y11.7303 
G01 X-0.2324 Y11.6313 
G01 X-0.4273 Y11.4364 
G01 X-0.5438 Y11.3585 
G01 X-0.6732 Y11.3049 
G01 X-0.8106 Y11.2776 
G01 X-1.3405 Y11.2776 
G01 X-1.4779 Y11.3049 
G01 X-1.5424 Y11.3316 
G01 X-1.6074 Y11.3585 
G01 X-1.7239 Y11.4364 
G01 X-1.7774 Y11.4899 
G01 X-2.1453 Y11.8579 
G01 X-2.1792 Y11.8872 
G01 X-2.1948 Y11.9073 
G01 X-2.2127 Y11.9252 
G01 X-2.2376 Y11.9625 
G01 X-2.2651 Y11.9979 
G00 Z3.0000  
G00 X-8.4836 Y9.0687  
G01 Z-0.0800 F254   
G01 X-8.4836 Y9.3717  F300   
G01 X-8.4440 Y9.6721  
G01 X-8.3656 Y9.9648  
G01 X-8.2497 Y10.2447 
G01 X-8.0982 Y10.5071 
G01 X-7.9137 Y10.7475 
G01 X-7.6995 Y10.9617 
G01 X-7.4591 Y11.1462 
G01 X-7.1967 Y11.2977 
G01 X-6.9168 Y11.4136 
G01 X-6.6241 Y11.4920 
G01 X-6.3237 Y11.5316 
G01 X-6.0207 Y11.5316 
G01 X-5.7203 Y11.4920 
G01 X-5.4276 Y11.4136 
G01 X-5.1477 Y11.2977 
G01 X-4.8853 Y11.1462 
G01 X-4.6449 Y10.9617 
G01 X-4.4307 Y10.7475 
G01 X-4.2462 Y10.5071 
G01 X-4.0947 Y10.2447 
G01 X-3.9788 Y9.9648  
G01 X-3.9003 Y9.6721  
G01 X-3.8608 Y9.3717  
G01 X-3.8608 Y9.0687  
G01 X-3.9003 Y8.7683  
G01 X-3.9788 Y8.4756  
G01 X-4.0947 Y8.1957  
G01 X-4.2462 Y7.9333  
G01 X-4.4307 Y7.6929  
G01 X-4.6449 Y7.4787  
G01 X-4.8853 Y7.2942  
G01 X-5.1477 Y7.1427  
G01 X-5.4276 Y7.0268  
G01 X-5.7203 Y6.9484  
G01 X-6.0207 Y6.9088  
G01 X-6.3237 Y6.9088  
G01 X-6.6241 Y6.9484  
G01 X-6.9168 Y7.0268  
G01 X-7.1967 Y7.1427  
G01 X-7.4591 Y7.2942  
G01 X-7.6995 Y7.4787  
G01 X-7.9137 Y7.6929  
G01 X-8.0982 Y7.9333  
G01 X-8.2497 Y8.1957  
G01 X-8.3656 Y8.4756  
G01 X-8.4440 Y8.7683  
G01 X-8.4836 Y9.0687  
G00 Z3.0000  
G00 X-8.4836 Y21.1083 
G01 Z-0.0800 F254   
G01 X-8.4836 Y21.4113 F300   
G01 X-8.4440 Y21.7117 
G01 X-8.3656 Y22.0044 
G01 X-8.2497 Y22.2843 
G01 X-8.0982 Y22.5467 
G01 X-7.9137 Y22.7871 
G01 X-7.6995 Y23.0013 
G01 X-7.4591 Y23.1858 
G01 X-7.1967 Y23.3373 
G01 X-6.9168 Y23.4532 
G01 X-6.6241 Y23.5316 
G01 X-6.3237 Y23.5712 
G01 X-6.0207 Y23.5712 
G01 X-5.7203 Y23.5316 
G01 X-5.4276 Y23.4532 
G01 X-5.1477 Y23.3373 
G01 X-4.8853 Y23.1858 
G01 X-4.6449 Y23.0013 
G01 X-4.4307 Y22.7871 
G01 X-4.2462 Y22.5467 
G01 X-4.0947 Y22.2843 
G01 X-3.9788 Y22.0044 
G01 X-3.9003 Y21.7117 
G01 X-3.8608 Y21.4113 
G01 X-3.8608 Y21.1083 
G01 X-3.9003 Y20.8079 
G01 X-3.9788 Y20.5152 
G01 X-4.0947 Y20.2353 
G01 X-4.2462 Y19.9729 
G01 X-4.4307 Y19.7325 
G01 X-4.6449 Y19.5183 
G01 X-4.8853 Y19.3338 
G01 X-5.1477 Y19.1823 
G01 X-5.4276 Y19.0664 
G01 X-5.7203 Y18.9880 
G01 X-6.0207 Y18.9484 
G01 X-6.3237 Y18.9484 
G01 X-6.6241 Y18.9880 
G01 X-6.9168 Y19.0664 
G01 X-7.1967 Y19.1823 
G01 X-7.4591 Y19.3338 
G01 X-7.6995 Y19.5183 
G01 X-7.9137 Y19.7325 
G01 X-8.0982 Y19.9729 
G01 X-8.2497 Y20.2353 
G01 X-8.3656 Y20.5152 
G01 X-8.4440 Y20.8079 
G01 X-8.4836 Y21.1083 
G00 Z3.0000  
G82 X-3.8100 Y3.8100  Z-0.2794 F254   R3.0000  P1.000000
G82 X-3.8100 Y26.6700 
G82 X-34.2900 Y26.6700 
G82 X-34.2900 Y3.8100  
G82 X-24.9936 Y13.6144 
G82 X-24.9936 Y11.1760 
G82 X-35.5600 Y11.4300 
G82 X-35.5600 Y13.9700 
G82 X-35.5600 Y16.5100 
G82 X-35.5600 Y19.0500 
G82 X-8.8900 Y16.4900 
G82 X-10.8712 Y16.4900 
G82 X-8.8900 Y13.9900 
G82 X-6.1722 Y9.2202  
G82 X-6.1722 Y21.2598 
G82 X-10.8712 Y13.9900 
G00 Z12.0000 
M05
M02
